; generated by PrusaSlicer 2.6.0+win64 on 2024-02-03 at 02:25:36 UTC

; 

; external perimeters extrusion width = 0.42mm
; perimeters extrusion width = 0.44mm
; infill extrusion width = 0.44mm
; solid infill extrusion width = 0.44mm
; top infill extrusion width = 0.40mm
; support material extrusion width = 0.36mm
; first layer extrusion width = 0.42mm

M201 X500 Y500 Z100 E5000 ; sets maximum accelerations, mm/sec^2
M203 X500 Y500 Z10 E60 ; sets maximum feedrates, mm / sec
M204 S500 T1000 ; sets acceleration (S) and retract acceleration (R), mm/sec^2
M205 X8.00 Y8.00 Z0.40 E5.00 ; sets the jerk limits, mm/sec
M205 S0 T0 ; sets the minimum extruding and travel feed rate, mm/sec
;TYPE:Custom
G90 ; use absolute coordinates
M83 ; extruder relative mode
M104 S150 ; set temporary nozzle temp to prevent oozing during homing
M140 S60 ; set final bed temp
G4 S30 ; allow partial nozzle warmup
G28 ; home all axis
G1 Z50 F240
G1 X2.0 Y10 F3000
M104 S215 ; set final nozzle temp
M190 S60 ; wait for bed temp to stabilize
M109 S215 ; wait for nozzle temp to stabilize
G1 Z0.28 F240
G92 E0
G1 X2.0 Y140 E10 F1500 ; prime the nozzle
G1 X2.3 Y140 F5000
G92 E0
G1 X2.3 Y10 E10 F1200 ; prime the nozzle
G92 E0
G21 ; set units to millimeters
G90 ; use absolute coordinates
M83 ; use relative distances for extrusion
; Filament gcode
M107
;LAYER_CHANGE
;Z:0.2
;HEIGHT:0.2
;BEFORE_LAYER_CHANGE
G92 E0
;0.2


G1 E-5 F3600
G1 Z.2 F9000
;AFTER_LAYER_CHANGE
;0.2
G1 X99.677 Y99.677
G1 E5 F2400
M204 S500
;TYPE:Skirt/Brim
;WIDTH:0.42
G1 F1200
G1 X100.641 Y98.712 E.04277
G1 X102.039 Y97.871 E.05115
G1 X103.029 Y97.723 E.03139
G1 X127.971 Y97.723 E.78204
G1 X129.298 Y97.845 E.04178
G1 X130.466 Y98.18 E.0381
G1 X132.028 Y99.494 E.064
G1 X133.754 Y102.224 E.10127
G1 X134.277 Y104.029 E.05892
G1 X134.277 Y126.971 E.71933
G1 X133.695 Y128.866 E.06216
G1 X131.969 Y131.413 E.09647
G1 X130.889 Y132.426 E.04643
G1 X130.567 Y132.616 E.01172
G1 X129.573 Y133.007 E.03349
G1 X127.971 Y133.277 E.05094
G1 X110.029 Y133.277 E.56256
G1 X109.101 Y133.147 E.02938
G1 X102.101 Y131.147 E.22826
G1 X100.641 Y130.288 E.05311
G1 X97.712 Y127.359 E.12988
G1 X96.871 Y125.961 E.05115
G1 X96.723 Y124.971 E.03139
G1 X96.723 Y104.029 E.65662
G1 X97.117 Y102.446 E.05115
G1 X97.712 Y101.641 E.03139
G1 X99.634 Y99.719 E.08522
G1 E-3.5 F3600
;WIPE_START
G1 F7200
G1 X100.641 Y98.712 E-.67645
G1 X102.039 Y97.871 E-.77495
G1 X102.14 Y97.856 E-.0486
;WIPE_END
G1 X102.152 Y102.425 F9000
G1 E5 F2400
G1 F1200
G1 X102.366 Y102.226 E.00916
G1 X103.454 Y101.647 E.03864
G1 X104.676 Y101.386 E.03918
G1 X107.896 Y101.39 E.10096
G1 X109.001 Y101.624 E.03541
G1 X110.108 Y101.39 E.03548
G1 X126.446 Y101.386 E.51227
G1 X128.361 Y102.03 E.06335
G1 X128.957 Y102.49 E.02361
G1 X129.663 Y103.227 E.032
G1 X130.251 Y104.2 E.03565
G1 X130.571 Y105.28 E.03532
G1 X130.566 Y108.728 E.10811
G1 X130.231 Y109.848 E.03665
G1 X129.706 Y110.721 E.03194
G1 X128.735 Y111.699 E.04321
G1 X127.625 Y112.323 E.03993
G1 X126.352 Y112.613 E.04094
G1 X118.613 Y112.613 E.24265
G1 X118.613 Y118.387 E.18104
G1 X126.521 Y118.406 E.24795
G1 X127.554 Y118.649 E.03327
G1 X128.52 Y119.146 E.03406
G1 X129.501 Y120.032 E.04145
G1 X130.079 Y120.836 E.03105
G1 X130.617 Y122.615 E.05827
G1 X130.534 Y125.924 E.10378
G1 X130.257 Y126.787 E.02842
G1 X129.886 Y127.481 E.02467
G1 X128.755 Y128.678 E.05163
G1 X127.673 Y129.304 E.03919
G1 X126.41 Y129.613 E.04077
G1 X111.59 Y129.613 E.46467
G1 X110.357 Y129.312 E.0398
G1 X109.433 Y128.823 E.03278
G1 X108.399 Y127.852 E.04447
G1 X108.225 Y127.607 E.00942
G1 X104.225 Y127.559 E.12543
G1 X102.681 Y126.993 E.05156
G1 X102.046 Y126.511 E.025
G1 X101.36 Y125.803 E.03091
G1 X100.696 Y124.672 E.04112
G1 X100.386 Y123.403 E.04096
G1 X100.468 Y105.084 E.57439
G1 X100.494 Y104.916 E.00533
G1 X100.88 Y103.924 E.03338
G1 X101.488 Y103.043 E.03356
G1 X102.108 Y102.466 E.02656
G1 X102.365 Y102.742 F9000
G1 F1200
G1 X102.604 Y102.52 E.01023
G1 X103.606 Y101.993 E.0355
G1 X104.695 Y101.763 E.0349
G1 X107.877 Y101.767 E.09977
G1 X108.792 Y101.957 E.0293
G1 X109.001 Y102.044 E.0071
G1 X109.212 Y101.956 E.00717
G1 X110.127 Y101.767 E.02929
G1 X126.416 Y101.764 E.51073
G1 X128.156 Y102.348 E.05755
G1 X128.696 Y102.763 E.02135
G1 X129.353 Y103.442 E.02962
G1 X129.897 Y104.331 E.03268
G1 X130.202 Y105.361 E.03368
G1 X130.189 Y108.698 E.10463
G1 X129.878 Y109.714 E.03331
G1 X129.396 Y110.505 E.02904
G1 X128.488 Y111.413 E.04026
G1 X127.466 Y111.98 E.03665
G1 X126.331 Y112.236 E.03648
G1 X118.236 Y112.236 E.25381
G1 X118.236 Y118.764 E.20468
G1 X126.456 Y118.778 E.25773
G1 X127.444 Y119.011 E.03183
G1 X128.324 Y119.468 E.03109
G1 X129.232 Y120.297 E.03855
G1 X129.753 Y121.029 E.02817
G1 X130.239 Y122.637 E.05267
G1 X130.166 Y125.835 E.1003
G1 X129.903 Y126.655 E.027
G1 X129.566 Y127.28 E.02226
G1 X128.541 Y128.367 E.04684
G1 X127.554 Y128.945 E.03586
G1 X126.386 Y129.236 E.03774
G1 X111.614 Y129.236 E.46317
G1 X110.472 Y128.952 E.0369
G1 X109.635 Y128.503 E.02978
G1 X108.675 Y127.593 E.04147
G1 X108.427 Y127.233 E.01371
G1 X104.263 Y127.182 E.13057
G1 X102.841 Y126.65 E.0476
G1 X102.306 Y126.239 E.02115
G1 X101.672 Y125.59 E.02845
G1 X101.055 Y124.553 E.03783
G1 X100.763 Y123.38 E.0379
G1 X100.845 Y105.102 E.5731
G1 X100.862 Y104.999 E.00327
G1 X101.223 Y104.082 E.0309
G1 X101.76 Y103.305 E.02961
G1 X102.321 Y102.783 E.02403
G1 X102.577 Y103.054 F9000
G1 F1200
G1 X102.803 Y102.841 E.00974
G1 X103.758 Y102.339 E.03383
G1 X104.713 Y102.141 E.03058
G1 X107.856 Y102.144 E.09855
G1 X108.692 Y102.321 E.02679
G1 X109 Y102.459 E.01058
G1 X109.312 Y102.32 E.01071
G1 X110.147 Y102.144 E.02676
G1 X126.385 Y102.141 E.50913
G1 X127.952 Y102.666 E.05182
G1 X128.436 Y103.037 E.01912
G1 X129.043 Y103.657 E.02721
G1 X129.561 Y104.506 E.03118
G1 X129.832 Y105.439 E.03046
G1 X129.813 Y108.667 E.10121
G1 X129.526 Y109.577 E.02992
G1 X129.088 Y110.287 E.02616
G1 X128.242 Y111.126 E.03736
G1 X127.309 Y111.636 E.03334
G1 X126.311 Y111.859 E.03206
G1 X117.859 Y111.859 E.26501
G1 X117.859 Y119.141 E.22832
G1 X126.393 Y119.15 E.26758
G1 X127.292 Y119.357 E.02893
G1 X128.127 Y119.791 E.02951
G1 X128.961 Y120.56 E.03557
G1 X129.428 Y121.221 E.02538
G1 X129.862 Y122.658 E.04707
G1 X129.79 Y125.797 E.09845
G1 X129.551 Y126.52 E.02388
G1 X129.247 Y127.078 E.01992
G1 X128.325 Y128.056 E.04214
G1 X127.434 Y128.587 E.03252
G1 X126.362 Y128.859 E.03468
G1 X111.638 Y128.859 E.46166
G1 X110.588 Y128.593 E.03396
G1 X109.838 Y128.185 E.02677
G1 X108.951 Y127.336 E.0385
G1 X108.63 Y126.857 E.01808
G1 X104.362 Y126.817 E.13383
G1 X103.047 Y126.333 E.04393
G1 X102.565 Y125.964 E.01903
G1 X101.983 Y125.375 E.02596
G1 X101.413 Y124.433 E.03452
G1 X101.14 Y123.358 E.03478
G1 X101.222 Y105.123 E.57175
G1 X101.546 Y104.277 E.0284
G1 X102.034 Y103.565 E.02706
G1 X102.533 Y103.095 E.02149
G1 X102.792 Y103.37 F9000
G1 F1200
G1 X103.042 Y103.134 E.01078
G1 X103.907 Y102.686 E.03054
G1 X104.732 Y102.518 E.0264
G1 X107.835 Y102.522 E.09729
G1 X108.589 Y102.685 E.02419
G1 X109 Y102.877 E.01422
G1 X109.414 Y102.684 E.01432
G1 X110.168 Y102.521 E.02419
G1 X126.355 Y102.518 E.50753
G1 X127.748 Y102.985 E.04607
G1 X128.178 Y103.312 E.01694
G1 X128.734 Y103.874 E.02479
G1 X129.207 Y104.636 E.02812
G1 X129.462 Y105.517 E.02876
G1 X129.436 Y108.634 E.09773
G1 X129.175 Y109.437 E.02647
G1 X128.78 Y110.068 E.02334
G1 X127.998 Y110.837 E.03439
G1 X127.154 Y111.292 E.03006
G1 X126.29 Y111.482 E.02774
G1 X117.482 Y111.482 E.27617
G1 X117.482 Y119.518 E.25196
G1 X126.329 Y119.522 E.27739
G1 X127.183 Y119.719 E.02748
G1 X127.928 Y120.112 E.02641
G1 X128.688 Y120.821 E.03259
G1 X129.101 Y121.412 E.02261
G1 X129.484 Y122.679 E.0415
G1 X129.413 Y125.759 E.0966
G1 X129.2 Y126.381 E.02061
G1 X128.928 Y126.875 E.01768
G1 X128.107 Y127.748 E.03758
G1 X127.311 Y128.229 E.02916
G1 X126.338 Y128.482 E.03152
G1 X111.662 Y128.482 E.46016
G1 X110.707 Y128.234 E.03094
G1 X110.043 Y127.867 E.02379
G1 X109.229 Y127.081 E.03548
G1 X108.836 Y126.481 E.02249
G1 X104.459 Y126.451 E.13724
G1 X103.252 Y126.015 E.04024
G1 X102.822 Y125.688 E.01694
G1 X102.292 Y125.158 E.0235
G1 X101.771 Y124.31 E.03121
G1 X101.518 Y123.335 E.03158
G1 X101.599 Y105.177 E.56934
G1 X101.889 Y104.435 E.02498
G1 X102.307 Y103.826 E.02316
G1 X102.748 Y103.411 E.01899
G1 X103.005 Y103.68 F9000
G1 F1200
G1 X103.24 Y103.456 E.01018
G1 X104.056 Y103.033 E.02882
G1 X104.75 Y102.895 E.02219
G1 X107.814 Y102.899 E.09607
G1 X108.484 Y103.048 E.02152
G1 X109 Y103.296 E.01795
G1 X109.518 Y103.047 E.01802
G1 X110.189 Y102.898 E.02155
G1 X126.324 Y102.895 E.5059
G1 X127.545 Y103.304 E.04037
G1 X127.921 Y103.588 E.01477
G1 X128.427 Y104.094 E.02244
G1 X128.852 Y104.768 E.02498
G1 X129.092 Y105.595 E.027
G1 X129.059 Y108.599 E.09419
G1 X128.825 Y109.294 E.02299
G1 X128.474 Y109.847 E.02054
G1 X127.793 Y110.52 E.03002
G1 X127.044 Y110.93 E.02677
G1 X126.269 Y111.105 E.02491
G1 X117.105 Y111.105 E.28733
G1 X117.105 Y119.895 E.2756
G1 X126.268 Y119.895 E.2873
G1 X127.03 Y120.064 E.02447
G1 X127.729 Y120.433 E.02478
G1 X128.414 Y121.081 E.02957
G1 X128.774 Y121.602 E.01986
G1 X129.106 Y122.701 E.036
G1 X129.037 Y125.718 E.09462
G1 X128.851 Y126.237 E.01729
G1 X128.61 Y126.672 E.01559
G1 X127.888 Y127.44 E.03305
G1 X127.186 Y127.872 E.02584
G1 X126.313 Y128.105 E.02833
G1 X111.687 Y128.105 E.45859
G1 X110.828 Y127.877 E.02787
G1 X110.25 Y127.552 E.02079
G1 X109.509 Y126.827 E.0325
G1 X109.206 Y126.359 E.01748
G1 X109.107 Y126.105 E.00855
G1 X104.554 Y126.085 E.14276
G1 X103.455 Y125.696 E.03655
G1 X103.079 Y125.412 E.01477
G1 X102.573 Y124.906 E.02244
G1 X102.127 Y124.185 E.02658
G1 X101.895 Y123.31 E.02838
G1 X101.963 Y105.28 E.56532
G1 X102.214 Y104.628 E.02191
G1 X102.583 Y104.084 E.02061
G1 X102.962 Y103.722 E.01643
G1 X103.222 Y103.994 F9000
G1 F1200
G1 X103.48 Y103.749 E.01116
G1 X104.203 Y103.382 E.02542
G1 X104.767 Y103.272 E.01802
G1 X107.791 Y103.276 E.09482
G1 X108.377 Y103.41 E.01885
G1 X109 Y103.718 E.02179
G1 X109.625 Y103.409 E.02186
G1 X110.211 Y103.276 E.01884
G1 X126.294 Y103.272 E.50427
G1 X127.344 Y103.624 E.03472
G1 X127.664 Y103.865 E.01256
G1 X128.145 Y104.345 E.02131
G1 X128.517 Y104.943 E.02208
G1 X128.722 Y105.67 E.02368
G1 X128.683 Y108.561 E.09065
G1 X128.478 Y109.147 E.01947
G1 X128.168 Y109.625 E.01786
G1 X127.586 Y110.204 E.02574
G1 X126.932 Y110.569 E.02348
G1 X126.247 Y110.728 E.02205
G1 X116.728 Y110.728 E.29846
G1 X116.728 Y120.272 E.29925
G1 X126.248 Y120.272 E.29849
G1 X126.88 Y120.411 E.02029
G1 X127.49 Y120.726 E.02153
G1 X128.14 Y121.341 E.02806
G1 X128.446 Y121.79 E.01704
G1 X128.729 Y122.723 E.03057
G1 X128.672 Y125.62 E.09085
G1 X128.502 Y126.095 E.01582
G1 X128.293 Y126.467 E.01338
G1 X127.666 Y127.135 E.02873
G1 X127.058 Y127.517 E.02251
G1 X126.287 Y127.728 E.02506
G1 X111.713 Y127.728 E.45696
G1 X110.952 Y127.52 E.02474
G1 X110.46 Y127.238 E.01778
G1 X109.79 Y126.574 E.02958
G1 X109.537 Y126.177 E.01476
G1 X109.376 Y125.728 E.01496
G1 X104.647 Y125.718 E.14827
G1 X103.657 Y125.376 E.03284
G1 X103.336 Y125.135 E.01259
G1 X102.855 Y124.655 E.02131
G1 X102.483 Y124.058 E.02206
G1 X102.272 Y123.285 E.02512
G1 X102.328 Y105.38 E.5614
G1 X102.54 Y104.818 E.01883
G1 X102.859 Y104.342 E.01797
G1 X103.179 Y104.036 E.01388
G1 X103.439 Y104.303 F9000
G1 F1200
G1 X103.676 Y104.072 E.01038
G1 X104.349 Y103.731 E.02366
G1 X104.784 Y103.649 E.01388
G1 X107.768 Y103.653 E.09356
G1 X108.267 Y103.771 E.01608
G1 X108.736 Y104.008 E.01648
G1 X109 Y104.243 E.01108
G1 X109.267 Y104.006 E.01119
G1 X109.735 Y103.77 E.01643
G1 X110.233 Y103.653 E.01604
G1 X126.263 Y103.649 E.50261
G1 X127.143 Y103.945 E.02911
G1 X127.408 Y104.141 E.01033
G1 X127.864 Y104.597 E.02022
G1 X128.162 Y105.072 E.01758
G1 X128.351 Y105.746 E.02195
G1 X128.306 Y108.522 E.08705
G1 X128.132 Y108.994 E.01577
G1 X127.864 Y109.402 E.01531
G1 X127.379 Y109.888 E.02153
G1 X126.772 Y110.227 E.0218
G1 X126.226 Y110.351 E.01756
G1 X116.351 Y110.351 E.30962
G1 X116.351 Y120.649 E.32289
G1 X126.226 Y120.649 E.30962
G1 X126.771 Y120.773 E.01752
G1 X127.289 Y121.046 E.01836
G1 X127.864 Y121.598 E.02499
G1 X128.117 Y121.976 E.01426
G1 X128.351 Y122.747 E.02526
G1 X128.306 Y125.523 E.08705
G1 X128.153 Y125.952 E.01428
G1 X127.977 Y126.259 E.0111
G1 X127.409 Y126.858 E.02588
G1 X126.929 Y127.162 E.01781
G1 X126.26 Y127.351 E.0218
G1 X111.74 Y127.351 E.45526
G1 X111.078 Y127.164 E.02157
G1 X110.706 Y126.951 E.01344
G1 X110.096 Y126.354 E.02676
G1 X109.868 Y125.995 E.01333
G1 X109.646 Y125.351 E.02136
G1 X104.737 Y125.351 E.15392
G1 X103.857 Y125.055 E.02911
G1 X103.592 Y124.859 E.01033
G1 X103.136 Y124.403 E.02022
G1 X102.838 Y123.929 E.01756
G1 X102.649 Y123.259 E.02183
G1 X102.694 Y105.479 E.55748
G1 X102.868 Y105.006 E.0158
G1 X103.137 Y104.596 E.01538
G1 X103.396 Y104.345 E.01131
G1 X103.659 Y104.615 F9000
G1 F1200
G1 X103.917 Y104.363 E.01131
G1 X104.49 Y104.081 E.02002
G1 X104.799 Y104.026 E.00984
G1 X107.746 Y104.03 E.0924
G1 X108.117 Y104.118 E.01196
G1 X108.537 Y104.33 E.01475
G1 X109 Y104.775 E.02014
G1 X109.465 Y104.329 E.0202
G1 X109.885 Y104.117 E.01475
G1 X110.255 Y104.03 E.01192
G1 X126.232 Y104.026 E.50095
G1 X126.944 Y104.266 E.02356
G1 X127.152 Y104.419 E.0081
G1 X127.583 Y104.85 E.01911
G1 X127.808 Y105.204 E.01315
G1 X127.974 Y105.771 E.01852
G1 X127.941 Y108.425 E.08322
G1 X127.803 Y108.809 E.01279
G1 X127.583 Y109.15 E.01272
G1 X127.132 Y109.601 E.02
G1 X126.616 Y109.882 E.01842
G1 X126.206 Y109.974 E.01317
G1 X115.974 Y109.974 E.32082
G1 X115.974 Y121.026 E.34653
G1 X126.206 Y121.026 E.32082
G1 X126.617 Y121.118 E.01321
G1 X127.088 Y121.367 E.0167
G1 X127.584 Y121.852 E.02175
G1 X127.787 Y122.16 E.01157
G1 X127.974 Y122.772 E.02006
G1 X127.941 Y125.425 E.08319
G1 X127.804 Y125.808 E.01275
G1 X127.663 Y126.049 E.00875
G1 X127.153 Y126.58 E.02308
G1 X126.795 Y126.808 E.01331
G1 X126.232 Y126.974 E.0184
G1 X111.768 Y126.974 E.45351
G1 X111.206 Y126.809 E.01836
G1 X110.951 Y126.663 E.00921
G1 X110.4 Y126.129 E.02406
G1 X110.217 Y125.848 E.01051
G1 X110.046 Y125.352 E.01645
G1 X110.023 Y124.974 E.01187
G1 X104.768 Y124.974 E.16477
G1 X104.056 Y124.734 E.02356
G1 X103.848 Y124.581 E.0081
G1 X103.417 Y124.15 E.01911
G1 X103.192 Y123.796 E.01315
G1 X103.026 Y123.232 E.01843
G1 X103.059 Y105.575 E.55362
G1 X103.197 Y105.191 E.01279
G1 X103.416 Y104.851 E.01268
G1 X103.616 Y104.657 E.00874
G1 X103.88 Y104.921 F9000
G1 F1200
G1 X104.113 Y104.687 E.01035
G1 X104.63 Y104.433 E.01806
G1 X104.812 Y104.403 E.00578
G1 X107.724 Y104.407 E.0913
G1 X107.966 Y104.464 E.0078
G1 X108.339 Y104.652 E.0131
G1 X109 Y105.313 E.02931
G1 X109.663 Y104.651 E.02938
G1 X110.035 Y104.464 E.01305
G1 X110.277 Y104.407 E.0078
G1 X126.201 Y104.403 E.49929
G1 X126.746 Y104.588 E.01805
G1 X126.896 Y104.696 E.0058
G1 X127.302 Y105.102 E.018
G1 X127.456 Y105.342 E.00894
G1 X127.597 Y105.798 E.01497
G1 X127.575 Y108.328 E.07933
G1 X127.456 Y108.661 E.01109
G1 X127.302 Y108.897 E.00884
G1 X126.886 Y109.314 E.01847
G1 X126.464 Y109.536 E.01495
G1 X126.186 Y109.597 E.00892
G1 X115.597 Y109.597 E.33201
G1 X115.597 Y121.403 E.37017
G1 X126.186 Y121.403 E.33201
G1 X126.464 Y121.464 E.00892
G1 X126.886 Y121.686 E.01495
G1 X127.302 Y122.102 E.01845
G1 X127.456 Y122.342 E.00894
G1 X127.597 Y122.798 E.01497
G1 X127.575 Y125.328 E.07933
G1 X127.455 Y125.662 E.01113
G1 X127.352 Y125.836 E.00634
G1 X126.898 Y126.302 E.0204
G1 X126.658 Y126.456 E.00894
G1 X126.202 Y126.597 E.01497
G1 X111.798 Y126.597 E.45163
G1 X111.341 Y126.456 E.015
G1 X111.164 Y126.352 E.00644
G1 X110.678 Y125.874 E.02137
G1 X110.565 Y125.703 E.00643
G1 X110.413 Y125.261 E.01466
G1 X110.399 Y124.597 E.02082
G1 X104.799 Y124.597 E.17558
G1 X104.254 Y124.412 E.01805
G1 X104.104 Y124.304 E.0058
G1 X103.698 Y123.898 E.018
G1 X103.544 Y123.658 E.00894
G1 X103.403 Y123.202 E.01497
G1 X103.425 Y105.671 E.54967
G1 X103.544 Y105.339 E.01106
G1 X103.698 Y105.103 E.00884
G1 X103.837 Y104.963 E.00619
G1 X104.104 Y105.23 F9000
G1 F1200
G1 X104.357 Y104.976 E.01124
G1 X104.721 Y104.799 E.01269
G1 X104.829 Y104.78 E.00344
G1 X107.702 Y104.784 E.09008
G1 X107.816 Y104.811 E.00367
G1 X108.142 Y104.975 E.01144
