; generated by PrusaSlicer 2.6.0+win64 on 2024-02-02 at 23:02:46 UTC

; 

; external perimeters extrusion width = 0.42mm
; perimeters extrusion width = 0.44mm
; infill extrusion width = 0.44mm
; solid infill extrusion width = 0.44mm
; top infill extrusion width = 0.40mm
; support material extrusion width = 0.36mm
; first layer extrusion width = 0.42mm

M201 X500 Y500 Z100 E5000 ; sets maximum accelerations, mm/sec^2
M203 X500 Y500 Z10 E60 ; sets maximum feedrates, mm / sec
M204 S500 T1000 ; sets acceleration (S) and retract acceleration (R), mm/sec^2
M205 X8.00 Y8.00 Z0.40 E5.00 ; sets the jerk limits, mm/sec
M205 S0 T0 ; sets the minimum extruding and travel feed rate, mm/sec
;TYPE:Custom
G90 ; use absolute coordinates
M83 ; extruder relative mode
M104 S150 ; set temporary nozzle temp to prevent oozing during homing
M140 S60 ; set final bed temp
G4 S30 ; allow partial nozzle warmup
G28 ; home all axis
G1 Z50 F240
G1 X2.0 Y10 F3000
M104 S215 ; set final nozzle temp
M190 S60 ; wait for bed temp to stabilize
M109 S215 ; wait for nozzle temp to stabilize
G1 Z0.28 F240
G92 E0
G1 X2.0 Y140 E10 F1500 ; prime the nozzle
G1 X2.3 Y140 F5000
G92 E0
G1 X2.3 Y10 E10 F1200 ; prime the nozzle
G92 E0
G21 ; set units to millimeters
G90 ; use absolute coordinates
M83 ; use relative distances for extrusion
; Filament gcode
M107
;LAYER_CHANGE
;Z:0.2
;HEIGHT:0.2
;BEFORE_LAYER_CHANGE
G92 E0
;0.2


G1 E-5 F3600
G1 Z.2 F9000
;AFTER_LAYER_CHANGE
;0.2
G1 X100.402 Y44.949
G1 E5 F2400
M204 S500
;TYPE:Skirt/Brim
;WIDTH:0.42
G1 F1200
G1 X101.457 Y43.187 E.06439
G1 X102.736 Y41.619 E.06344
G1 X104.25 Y40.23 E.06442
G1 X105.686 Y39.23 E.05487
G1 X107.515 Y38.292 E.06445
G1 X109.337 Y37.663 E.06044
G1 X111.052 Y37.311 E.05489
G1 X112.48 Y37.182 E.04496
G1 X115.847 Y37.177 E.10557
G1 X126.069 Y38.328 E.32253
G1 X127.613 Y38.665 E.04955
G1 X128.91 Y39.106 E.04295
G1 X129.903 Y39.55 E.03411
G1 X130.977 Y40.149 E.03856
G1 X132.751 Y41.469 E.06933
G1 X134.279 Y43.068 E.06935
G1 X135.465 Y44.809 E.06605
G1 X136.123 Y46.129 E.04624
G1 X136.511 Y47.146 E.03413
G1 X136.878 Y48.466 E.04296
G1 X137.102 Y49.782 E.04186
G1 X137.191 Y51.149 E.04295
G1 X137.16 Y52.237 E.03413
G1 X136.995 Y53.597 E.04295
G1 X136.698 Y54.899 E.04187
G1 X136.257 Y56.196 E.04295
G1 X135.812 Y57.189 E.03412
G1 X135.139 Y58.382 E.04295
G1 X134.366 Y59.471 E.04187
G1 X133.463 Y60.501 E.04295
G1 X132.672 Y61.249 E.03413
G1 X131.593 Y62.093 E.04295
G1 X130.554 Y62.751 E.03856
G1 X129.587 Y63.251 E.03413
G1 X128.217 Y63.797 E.04624
G1 X126.897 Y64.164 E.04296
G1 X125.685 Y64.375 E.03857
G1 X116.137 Y65.455 E.30128
G1 X112.85 Y65.477 E.10306
G1 X110.958 Y65.325 E.05951
G1 X109.429 Y65.011 E.04894
G1 X107.974 Y64.541 E.04794
G1 X106.308 Y63.776 E.05748
G1 X105.005 Y62.978 E.04791
G1 X103.771 Y62.023 E.04892
G1 X102.671 Y60.96 E.04796
G1 X101.75 Y59.862 E.04493
G1 X100.741 Y58.331 E.05749
G1 X99.821 Y56.388 E.06741
G1 X99.298 Y54.719 E.05484
G1 X98.95 Y52.693 E.06445
G1 X98.899 Y50.671 E.06342
G1 X99.161 Y48.537 E.06741
G1 X99.711 Y46.558 E.0644
G1 X100.378 Y45.005 E.05299
G1 X100.701 Y45.194 F9000
G1 F1200
G1 X101.694 Y43.506 E.0614
G1 X102.951 Y41.941 E.06294
G1 X104.178 Y40.775 E.05307
G1 X105.805 Y39.599 E.06294
G1 X107.663 Y38.639 E.06557
G1 X109.441 Y38.026 E.05897
G1 X111.099 Y37.685 E.05307
G1 X112.489 Y37.559 E.04376
G1 X115.825 Y37.553 E.1046
G1 X125.633 Y38.648 E.30943
G1 X126.95 Y38.883 E.04195
G1 X128.414 Y39.32 E.0479
G1 X130.28 Y40.176 E.06437
G1 X132.06 Y41.379 E.06736
G1 X133.612 Y42.863 E.06733
G1 X134.944 Y44.667 E.07031
G1 X135.52 Y45.718 E.03758
G1 X136.043 Y46.949 E.04194
G1 X136.36 Y47.946 E.0328
G1 X136.647 Y49.253 E.04196
G1 X136.791 Y50.538 E.04054
G1 X136.803 Y51.876 E.04195
G1 X136.715 Y52.919 E.03282
G1 X136.479 Y54.236 E.04195
G1 X136.122 Y55.478 E.04052
G1 X135.62 Y56.719 E.04197
G1 X135.14 Y57.649 E.03281
G1 X134.418 Y58.775 E.04194
G1 X133.612 Y59.786 E.04054
G1 X132.674 Y60.741 E.04197
G1 X131.566 Y61.648 E.0449
G1 X130.696 Y62.23 E.03282
G1 X129.645 Y62.806 E.03758
G1 X128.414 Y63.329 E.04194
G1 X127.042 Y63.743 E.04493
G1 X126.016 Y63.947 E.0328
G1 X116.115 Y65.079 E.31246
G1 X112.902 Y65.1 E.10074
G1 X111.497 Y65.015 E.04413
G1 X109.73 Y64.698 E.05629
G1 X108.394 Y64.295 E.04375
G1 X107.028 Y63.721 E.04646
G1 X105.697 Y62.983 E.04772
G1 X104.488 Y62.127 E.04645
G1 X103.156 Y60.924 E.05628
G1 X102.183 Y59.808 E.04642
G1 X101.269 Y58.485 E.05042
G1 X100.353 Y56.699 E.06293
G1 X99.717 Y54.839 E.06163
G1 X99.338 Y52.781 E.06561
G1 X99.273 Y50.775 E.06293
G1 X99.444 Y49.091 E.05307
G1 X99.939 Y47.058 E.06561
G1 X100.677 Y45.25 E.06123
G1 E-3.5 F3600
;WIPE_START
G1 F7200
G1 X101.694 Y43.506 E-.95896
G1 X102.407 Y42.618 E-.54104
;WIPE_END
G1 X103.982 Y46.852 F9000
G1 E5 F2400
G1 F1200
G1 X104.176 Y46.453 E.01391
G1 X104.68 Y45.631 E.03023
G1 X105.295 Y44.82 E.03191
G1 X105.824 Y44.238 E.02466
G1 X106.432 Y43.667 E.02615
G1 X107.118 Y43.126 E.02739
G1 X107.832 Y42.655 E.02682
G1 X108.594 Y42.24 E.02721
G1 X109.39 Y41.892 E.02724
G1 X110.334 Y41.58 E.03117
G1 X110.929 Y41.433 E.01922
G1 X111.661 Y41.306 E.02329
G1 X112.419 Y41.23 E.02389
G1 X115.897 Y41.227 E.10905
G1 X124.4 Y42.222 E.26842
G1 X124.748 Y42.24 E.01093
G1 X125.5 Y42.329 E.02374
G1 X126.223 Y42.478 E.02315
G1 X127.069 Y42.73 E.02768
G1 X128.001 Y43.118 E.03165
G1 X128.816 Y43.564 E.02913
G1 X129.443 Y43.988 E.02373
G1 X130.11 Y44.529 E.02693
G1 X130.774 Y45.186 E.02929
G1 X131.367 Y45.909 E.02932
G1 X131.833 Y46.604 E.02624
G1 X132.272 Y47.419 E.02903
G1 X132.624 Y48.268 E.02882
G1 X132.891 Y49.164 E.02931
G1 X133.053 Y49.99 E.02639
G1 X133.142 Y50.897 E.02857
G1 X133.139 Y51.814 E.02875
G1 X133.045 Y52.712 E.02831
G1 X132.848 Y53.653 E.03014
G1 X132.586 Y54.482 E.02726
G1 X132.214 Y55.35 E.02961
G1 X131.739 Y56.198 E.03048
G1 X131.132 Y57.045 E.03267
G1 X130.445 Y57.805 E.03212
G1 X129.702 Y58.464 E.03114
G1 X128.828 Y59.077 E.03347
G1 X127.846 Y59.605 E.03496
G1 X127.013 Y59.939 E.02814
G1 X126.151 Y60.19 E.02815
G1 X125.114 Y60.374 E.03302
G1 X124.452 Y60.421 E.02081
G1 X115.762 Y61.429 E.2743
G1 X112.466 Y61.421 E.10334
G1 X111.441 Y61.311 E.03232
G1 X110.441 Y61.099 E.03205
G1 X109.466 Y60.786 E.03211
G1 X108.528 Y60.376 E.0321
G1 X107.639 Y59.876 E.03198
G1 X106.81 Y59.293 E.03178
G1 X106.089 Y58.672 E.02984
G1 X105.467 Y58.028 E.02807
G1 X104.948 Y57.392 E.02574
G1 X104.418 Y56.614 E.02952
G1 X103.959 Y55.779 E.02988
G1 X103.552 Y54.83 E.03238
G1 X103.248 Y53.861 E.03184
G1 X103.06 Y52.97 E.02855
G1 X102.96 Y52.159 E.02562
G1 X102.925 Y51.251 E.02849
G1 X102.976 Y50.31 E.02955
G1 X103.114 Y49.376 E.0296
G1 X103.354 Y48.411 E.03118
G1 X103.724 Y47.385 E.0342
G1 X103.956 Y46.906 E.01669
G1 X104.295 Y47.071 F9000
G1 F1200
G1 X104.511 Y46.627 E.01548
G1 X104.996 Y45.837 E.02907
G1 X105.58 Y45.067 E.0303
G1 X106.087 Y44.508 E.02366
G1 X106.672 Y43.958 E.02518
G1 X107.345 Y43.427 E.02688
G1 X108.02 Y42.982 E.02535
G1 X108.767 Y42.575 E.02667
G1 X109.533 Y42.241 E.0262
G1 X110.432 Y41.945 E.02968
G1 X111 Y41.804 E.01835
G1 X111.706 Y41.68 E.02247
G1 X112.429 Y41.607 E.02278
G1 X115.864 Y41.603 E.1077
G1 X124.369 Y42.598 E.26849
G1 X124.71 Y42.615 E.01071
G1 X125.448 Y42.703 E.0233
G1 X126.123 Y42.841 E.0216
G1 X126.951 Y43.088 E.02709
G1 X127.829 Y43.453 E.02981
G1 X128.627 Y43.891 E.02854
G1 X129.225 Y44.295 E.02263
G1 X129.852 Y44.803 E.0253
G1 X130.502 Y45.447 E.02869
G1 X131.069 Y46.141 E.0281
G1 X131.506 Y46.791 E.02456
G1 X131.928 Y47.573 E.02786
G1 X132.265 Y48.386 E.02759
G1 X132.523 Y49.246 E.02815
G1 X132.678 Y50.037 E.02527
G1 X132.764 Y50.906 E.02738
G1 X132.762 Y51.785 E.02756
G1 X132.671 Y52.663 E.02768
G1 X132.481 Y53.567 E.02896
G1 X132.236 Y54.342 E.02548
G1 X131.88 Y55.175 E.0284
G1 X131.415 Y56.005 E.02983
G1 X130.845 Y56.801 E.0307
G1 X130.173 Y57.545 E.03143
G1 X129.46 Y58.175 E.02983
G1 X128.639 Y58.751 E.03145
G1 X127.695 Y59.259 E.03361
G1 X126.899 Y59.579 E.0269
G1 X126.055 Y59.825 E.02756
G1 X125.058 Y60.001 E.03174
G1 X124.417 Y60.045 E.02015
G1 X115.73 Y61.053 E.2742
G1 X112.477 Y61.044 E.102
G1 X111.509 Y60.94 E.03053
G1 X110.547 Y60.736 E.03083
G1 X109.608 Y60.436 E.03091
G1 X108.704 Y60.043 E.03091
G1 X107.848 Y59.562 E.03079
G1 X107.049 Y59 E.03063
G1 X106.354 Y58.403 E.02873
G1 X105.744 Y57.772 E.02752
G1 X105.246 Y57.161 E.02471
G1 X104.735 Y56.409 E.02851
G1 X104.294 Y55.605 E.02875
G1 X103.909 Y54.708 E.03061
G1 X103.611 Y53.757 E.03125
G1 X103.431 Y52.901 E.02743
G1 X103.337 Y52.136 E.02417
G1 X103.302 Y51.245 E.02796
G1 X103.352 Y50.339 E.02845
G1 X103.486 Y49.441 E.02847
G1 X103.712 Y48.529 E.02946
G1 X104.068 Y47.54 E.03296
G1 X104.269 Y47.125 E.01446
G1 X104.608 Y47.289 F9000
G1 F1200
G1 X104.846 Y46.8 E.01705
G1 X105.312 Y46.043 E.02787
G1 X105.865 Y45.314 E.02869
G1 X106.352 Y44.777 E.02273
G1 X106.912 Y44.249 E.02413
G1 X107.572 Y43.728 E.02636
G1 X108.207 Y43.309 E.02385
G1 X108.926 Y42.917 E.02568
G1 X109.676 Y42.59 E.02565
G1 X110.543 Y42.305 E.02862
G1 X111.084 Y42.171 E.01748
G1 X111.751 Y42.055 E.02123
G1 X112.458 Y41.983 E.02228
G1 X115.832 Y41.979 E.10579
G1 X124.338 Y42.974 E.26852
G1 X124.672 Y42.99 E.01048
G1 X125.396 Y43.076 E.02286
G1 X126.023 Y43.205 E.02007
G1 X126.834 Y43.447 E.02654
G1 X127.656 Y43.789 E.02791
G1 X128.438 Y44.217 E.02795
G1 X129.006 Y44.603 E.02153
G1 X129.593 Y45.078 E.02368
G1 X130.229 Y45.708 E.02807
G1 X130.772 Y46.372 E.02689
G1 X131.178 Y46.979 E.0229
G1 X131.584 Y47.727 E.02669
G1 X131.907 Y48.504 E.02638
G1 X132.155 Y49.328 E.02698
G1 X132.304 Y50.083 E.02413
G1 X132.387 Y50.915 E.02622
G1 X132.386 Y51.755 E.02634
G1 X132.297 Y52.614 E.02708
G1 X132.114 Y53.479 E.02772
G1 X131.885 Y54.203 E.02381
G1 X131.546 Y54.999 E.02713
G1 X131.091 Y55.811 E.02918
G1 X130.558 Y56.556 E.02872
G1 X129.9 Y57.284 E.03077
G1 X129.218 Y57.885 E.0285
G1 X128.45 Y58.424 E.02942
G1 X127.544 Y58.913 E.03228
G1 X126.767 Y59.226 E.02626
G1 X125.96 Y59.46 E.02635
G1 X125.003 Y59.628 E.03046
G1 X124.383 Y59.67 E.01948
G1 X115.697 Y60.678 E.27417
G1 X112.489 Y60.667 E.10059
G1 X111.56 Y60.566 E.0293
G1 X110.652 Y60.374 E.0291
G1 X109.749 Y60.086 E.02972
G1 X108.88 Y59.709 E.0297
G1 X108.041 Y59.237 E.03018
G1 X107.287 Y58.708 E.02888
G1 X106.619 Y58.135 E.02759
G1 X106.02 Y57.516 E.02701
G1 X105.544 Y56.929 E.0237
G1 X105.052 Y56.205 E.02745
G1 X104.629 Y55.432 E.02763
G1 X104.266 Y54.586 E.02886
G1 X103.974 Y53.653 E.03065
G1 X103.802 Y52.831 E.02633
G1 X103.713 Y52.114 E.02265
G1 X103.68 Y51.24 E.02742
G1 X103.728 Y50.369 E.02735
G1 X103.858 Y49.506 E.02736
G1 X104.07 Y48.647 E.02774
G1 X104.412 Y47.695 E.03172
G1 X104.582 Y47.343 E.01226
G1 X104.922 Y47.508 F9000
G1 F1200
G1 X105.181 Y46.973 E.01864
G1 X105.628 Y46.248 E.02671
G1 X106.15 Y45.561 E.02705
G1 X106.616 Y45.046 E.02178
G1 X107.152 Y44.54 E.02311
G1 X107.799 Y44.029 E.02585
G1 X108.395 Y43.636 E.02238
G1 X109.084 Y43.26 E.02461
G1 X109.818 Y42.939 E.02512
G1 X110.653 Y42.666 E.02754
G1 X111.168 Y42.539 E.01663
G1 X111.796 Y42.429 E.01999
G1 X112.486 Y42.359 E.02175
G1 X115.799 Y42.355 E.10388
G1 X124.307 Y43.35 E.26858
G1 X124.634 Y43.366 E.01027
G1 X125.343 Y43.45 E.02239
G1 X125.924 Y43.569 E.0186
G1 X126.699 Y43.799 E.02535
G1 X127.502 Y44.133 E.02727
G1 X128.249 Y44.543 E.02672
G1 X128.775 Y44.901 E.01995
G1 X129.349 Y45.365 E.02314
G1 X129.944 Y45.954 E.02625
G1 X130.474 Y46.604 E.0263
G1 X130.851 Y47.166 E.02122
G1 X131.239 Y47.881 E.02551
G1 X131.549 Y48.622 E.02518
G1 X131.791 Y49.428 E.02639
G1 X131.93 Y50.13 E.02244
G1 X132.01 Y50.925 E.02505
G1 X132.01 Y51.726 E.02511
G1 X131.923 Y52.565 E.02645
G1 X131.747 Y53.392 E.02651
G1 X131.535 Y54.064 E.02209
G1 X131.212 Y54.824 E.02589
G1 X130.778 Y55.601 E.02791
G1 X130.271 Y56.311 E.02735
G1 X129.628 Y57.023 E.03008
G1 X128.977 Y57.595 E.02717
G1 X128.261 Y58.098 E.02744
G1 X127.394 Y58.567 E.03091
G1 X126.635 Y58.872 E.02565
G1 X125.866 Y59.095 E.0251
G1 X124.949 Y59.254 E.02918
G1 X124.349 Y59.294 E.01885
G1 X115.665 Y60.302 E.27411
G1 X112.5 Y60.29 E.09924
G1 X111.628 Y60.195 E.0275
G1 X110.757 Y60.012 E.02791
G1 X109.89 Y59.737 E.02852
G1 X109.039 Y59.367 E.0291
G1 X108.234 Y58.914 E.02896
G1 X107.512 Y58.405 E.0277
G1 X106.871 Y57.855 E.02648
G1 X106.308 Y57.271 E.02543
G1 X105.851 Y56.71 E.02269
G1 X105.379 Y56.015 E.02634
G1 X104.972 Y55.275 E.02648
G1 X104.616 Y54.446 E.02829
G1 X104.341 Y53.567 E.02888
G1 X104.172 Y52.762 E.02579
G1 X104.09 Y52.091 E.0212
G1 X104.057 Y51.234 E.02689
G1 X104.104 Y50.399 E.02622
G1 X104.226 Y49.588 E.02571
G1 X104.434 Y48.747 E.02716
G1 X104.755 Y47.851 E.02984
G1 X104.895 Y47.562 E.01007
G1 X105.235 Y47.726 F9000
G1 F1200
G1 X105.516 Y47.146 E.02021
G1 X105.944 Y46.455 E.02549
G1 X106.435 Y45.808 E.02547
G1 X106.881 Y45.315 E.02084
G1 X107.392 Y44.831 E.02207
G1 X108.027 Y44.33 E.02536
G1 X108.583 Y43.963 E.02089
G1 X109.243 Y43.602 E.02359
G1 X109.96 Y43.289 E.02453
G1 X110.763 Y43.027 E.02648
G1 X111.252 Y42.907 E.01579
G1 X111.841 Y42.804 E.01875
G1 X112.515 Y42.735 E.02124
G1 X115.766 Y42.731 E.10193
G1 X124.276 Y43.726 E.26864
G1 X124.596 Y43.741 E.01004
G1 X125.291 Y43.823 E.02194
G1 X125.825 Y43.933 E.01709
G1 X126.563 Y44.151 E.02413
G1 X127.348 Y44.477 E.02665
G1 X128.059 Y44.869 E.02546
G1 X128.544 Y45.199 E.01839
G1 X129.104 Y45.652 E.02258
G1 X129.671 Y46.215 E.02505
G1 X130.176 Y46.835 E.02507
G1 X130.524 Y47.354 E.01959
G1 X130.895 Y48.035 E.02432
G1 X131.197 Y48.758 E.02457
G1 X131.427 Y49.527 E.02517
G1 X131.556 Y50.178 E.02081
G1 X131.633 Y50.935 E.02386
G1 X131.633 Y51.716 E.02449
G1 X131.549 Y52.516 E.02522
G1 X131.38 Y53.304 E.02527
G1 X131.184 Y53.925 E.02042
G1 X130.869 Y54.668 E.0253
G1 X130.454 Y55.407 E.02657
G1 X129.971 Y56.083 E.02605
G1 X129.37 Y56.747 E.02808
G1 X128.752 Y57.293 E.02586
G1 X128.071 Y57.772 E.02611
G1 X127.242 Y58.222 E.02958
G1 X126.521 Y58.513 E.02438
G1 X125.771 Y58.729 E.02447
G1 X124.895 Y58.881 E.02788
G1 X124.315 Y58.918 E.01822
G1 X115.655 Y59.925 E.27336
G1 X112.531 Y59.914 E.09795
G1 X111.678 Y59.821 E.0269
G1 X110.844 Y59.645 E.02673
G1 X110.014 Y59.38 E.02732
G1 X109.215 Y59.034 E.0273
G1 X108.443 Y58.6 E.02777
G1 X107.751 Y58.113 E.02653
G1 X107.124 Y57.575 E.0259
G1 X106.585 Y57.016 E.02435
G1 X106.158 Y56.491 E.02122
G1 X105.704 Y55.826 E.02525
G1 X105.314 Y55.117 E.02537
G1 X104.967 Y54.306 E.02766
G1 X104.708 Y53.481 E.02711
G1 X104.543 Y52.693 E.02524
G1 X104.466 Y52.068 E.01974
G1 X104.434 Y51.246 E.02579
G1 X104.478 Y50.446 E.02512
G1 X104.594 Y49.67 E.0246
G1 X104.798 Y48.847 E.02659
G1 X105.099 Y48.006 E.02801
G1 X105.208 Y47.78 E.00787
G1 X105.548 Y47.945 F9000
G1 F1200
G1 X105.851 Y47.32 E.02178
G1 X106.26 Y46.661 E.02432
G1 X106.73 Y46.043 E.02434
G1 X107.145 Y45.583 E.01943
G1 X107.632 Y45.122 E.02103
G1 X108.254 Y44.631 E.02485
G1 X108.771 Y44.29 E.01942
G1 X109.416 Y43.937 E.02305
G1 X110.102 Y43.638 E.02346
G1 X110.873 Y43.387 E.02542
G1 X111.335 Y43.275 E.01491
G1 X111.886 Y43.178 E.01754
G1 X112.544 Y43.111 E.02074
G1 X115.733 Y43.106 E.09999
G1 X124.246 Y44.102 E.26874
G1 X124.559 Y44.116 E.00982
G1 X125.239 Y44.197 E.02147
G1 X125.726 Y44.297 E.01559
G1 X126.428 Y44.503 E.02294
G1 X127.193 Y44.821 E.02598
G1 X127.869 Y45.195 E.02422
G1 X128.313 Y45.497 E.01684
G1 X128.859 Y45.939 E.02203
G1 X129.398 Y46.475 E.02383
G1 X129.878 Y47.066 E.02387
G1 X130.197 Y47.542 E.01797
G1 X130.559 Y48.207 E.02374
G1 X130.845 Y48.893 E.0233
G1 X131.063 Y49.626 E.02398
G1 X131.181 Y50.225 E.01914
G1 X131.256 Y50.944 E.02267
G1 X131.256 Y51.706 E.02389
G1 X131.176 Y52.466 E.02396
G1 X131.014 Y53.216 E.02406
G1 X130.834 Y53.786 E.01874
G1 X130.526 Y54.51 E.02467
G1 X130.131 Y55.213 E.02528
G1 X129.671 Y55.854 E.02474
G1 X129.113 Y56.472 E.02611
G1 X128.525 Y56.991 E.02459
G1 X127.881 Y57.446 E.02472
G1 X127.091 Y57.876 E.0282
G1 X126.407 Y58.153 E.02314
G1 X125.676 Y58.364 E.02386
G1 X124.86 Y58.505 E.02596
G1 X124.281 Y58.543 E.01819
G1 X115.645 Y59.548 E.2726
G1 X112.561 Y59.538 E.0967
G1 X111.747 Y59.45 E.02567
G1 X110.932 Y59.278 E.02612
G1 X110.138 Y59.024 E.02614
G1 X109.375 Y58.692 E.02609
G1 X108.652 Y58.285 E.02601
G1 X107.989 Y57.821 E.02537
G1 X107.376 Y57.294 E.02535
