; generated by PrusaSlicer 2.7.4+win64 on 2024-06-15 at 19:23:50 UTC

; 

; external perimeters extrusion width = 0.42mm
; perimeters extrusion width = 0.44mm
; infill extrusion width = 0.44mm
; solid infill extrusion width = 0.44mm
; top infill extrusion width = 0.40mm
; support material extrusion width = 0.36mm
; first layer extrusion width = 0.42mm

M201 X500 Y500 Z100 E5000 ; sets maximum accelerations, mm/sec^2
M203 X500 Y500 Z10 E60 ; sets maximum feedrates, mm / sec
M204 S500 T1000 ; sets acceleration (S) and retract acceleration (R), mm/sec^2
M205 X8.00 Y8.00 Z0.40 E5.00 ; sets the jerk limits, mm/sec
M205 S0 T0 ; sets the minimum extruding and travel feed rate, mm/sec

; printing object wheel arm.stl id:0 copy 0
; stop printing object wheel arm.stl id:0 copy 0

;TYPE:Custom
G90 ; use absolute coordinates
M83 ; extruder relative mode
M104 S150 ; set temporary nozzle temp to prevent oozing during homing
M140 S60 ; set final bed temp
G4 S30 ; allow partial nozzle warmup
G28 ; home all axis
G1 Z50 F240
G1 X2.0 Y10 F3000
M104 S210 ; set final nozzle temp
M190 S60 ; wait for bed temp to stabilize
M109 S210 ; wait for nozzle temp to stabilize
G1 Z0.28 F240
G92 E0
G1 X2.0 Y140 E10 F1500 ; prime the nozzle
G1 X2.3 Y140 F5000
G92 E0
G1 X2.3 Y10 E10 F1200 ; prime the nozzle
G92 E0
G21 ; set units to millimeters
G90 ; use absolute coordinates
M83 ; use relative distances for extrusion
; Filament gcode
M107
;LAYER_CHANGE
;Z:0.2
;HEIGHT:0.2
G1 E-5 F3600
G1 Z.2 F9000
G1 X94.77 Y87.38
G1 Z.2
G1 E5 F2400
M204 S500
;TYPE:Skirt/Brim
;WIDTH:0.42
G1 F1200
G1 X100.141 Y83.352 E.2105
G1 X103.343 Y81.69 E.11311
G1 X104.853 Y81.333 E.04865
G1 X115.147 Y81.333 E.32276
G1 X116.657 Y81.69 E.04865
G1 X119.859 Y83.352 E.11311
G1 X125.23 Y87.38 E.2105
G1 X126.26 Y88.645 E.05115
G1 X126.581 Y90.082 E.04617
G1 X126.581 Y101.719 E.36487
G1 X126.48 Y102.538 E.02587
G1 X118.423 Y134.766 E1.04159
G1 X117.657 Y136.206 E.05114
G1 X116.305 Y137.119 E.05115
G1 X115.147 Y137.324 E.03687
G1 X104.853 Y137.324 E.32276
G1 X103.27 Y136.93 E.05115
G1 X102.056 Y135.839 E.05118
G1 X101.577 Y134.766 E.03684
G1 X93.52 Y102.538 E1.04159
G1 X93.419 Y101.719 E.02587
G1 X93.419 Y90.082 E.36487
G1 X93.813 Y88.499 E.05115
G1 X94.731 Y87.426 E.04428
G1 E-3.5 F3600
;WIPE_START
G1 F7200
G1 X94.77 Y87.38 E-.02865
G1 X97.248 Y85.521 E-1.47135
;WIPE_END
; printing object wheel arm.stl id:0 copy 0
G1 X115.147 Y85.553 F9000
G1 E5 F2400
;TYPE:Support material
G1 F1200
G1 X115.356 Y85.553 E.00655
G1 X115.856 Y86.053 E.02217
G1 X117.833 Y86.053 E.06199
G1 X117.833 Y86.896 E.02643
G1 X118.041 Y86.896 E.00652
G1 X119.676 Y88.53 E.07248
G1 X119.676 Y88.739 E.00655
G1 X120.518 Y88.739 E.0264
G1 X120.518 Y90.082 E.04211
G1 X123.204 Y90.082 E.08422
G1 X123.204 Y101.719 E.36487
G1 X121.018 Y101.719 E.06854
G1 X121.018 Y101.927 E.00652
G1 X119.176 Y103.77 E.0817
G1 X119.176 Y105.747 E.06199
G1 X117.198 Y105.747 E.06202
G1 X116.698 Y106.247 E.02217
G1 X116.49 Y106.247 E.00652
G1 X116.49 Y107.09 E.02643
G1 X115.147 Y107.09 E.04211
G1 X115.147 Y133.947 E.84208
G1 X104.853 Y133.947 E.32276
G1 X104.853 Y107.09 E.84208
G1 X103.51 Y107.09 E.04211
G1 X103.51 Y106.247 E.02643
G1 X103.302 Y106.247 E.00652
G1 X102.802 Y105.747 E.02217
G1 X100.824 Y105.747 E.06202
G1 X100.824 Y103.77 E.06199
G1 X98.982 Y101.927 E.0817
G1 X98.982 Y101.719 E.00652
G1 X96.796 Y101.719 E.06854
G1 X96.796 Y90.082 E.36487
G1 X99.482 Y90.082 E.08422
G1 X99.482 Y88.739 E.04211
G1 X100.324 Y88.739 E.0264
G1 X100.324 Y88.53 E.00655
G1 X101.959 Y86.896 E.07248
G1 X102.167 Y86.896 E.00652
G1 X102.167 Y86.053 E.02643
G1 X104.144 Y86.053 E.06199
G1 X104.644 Y85.553 E.02217
G1 X104.853 Y85.553 E.00655
G1 X104.853 Y84.71 E.02643
G1 X115.147 Y84.71 E.32276
G1 X115.147 Y85.497 E.02468
G1 X115.147 Y85.497 F9000
G1 X114.808 Y85.464
G1 F1200
G1 X114.808 Y85.893 E.01345
G1 E-3.5 F3600
;WIPE_START
G1 F7200
G1 X114.808 Y85.464 E-.20378
;WIPE_END
G1 E-1.29622 F3600
G1 X105.192 Y133.193 F9000
G1 E5 F2400
G1 F1200
G1 X105.192 Y106.751 E.82907
G1 E-3.5 F3600
;WIPE_START
G1 F7200
G1 X105.192 Y109.909 E-1.5
;WIPE_END
G1 X122.758 Y101.379 F9000
G1 E5 F2400
G1 F1200
G1 X122.865 Y101.379 E.00335
G1 X122.865 Y100.8 E.01815
G1 E-3.5 F3600
;WIPE_START
G1 F7200
G1 X122.865 Y101.379 E-.27503
G1 X122.758 Y101.379 E-.05083
;WIPE_END
G1 E-1.17414 F3600
G1 X97.242 Y90.421 F9000
G1 E5 F2400
G1 F1200
G1 X97.135 Y90.421 E.00335
G1 X97.135 Y91.001 E.01819
G1 E-3.5 F3600
;WIPE_START
G1 F7200
G1 X97.135 Y90.421 E-.2755
G1 X97.242 Y90.421 E-.05082
;WIPE_END
G1 E-1.17368 F3600
G1 X120.893 Y101.379 F9000
G1 E5 F2400
G1 F1200
G1 X120.893 Y90.421 E.34358
G1 X121.312 Y90.421 E.01314
G1 X121.312 Y101.379 E.34358
G1 X121.731 Y101.379 E.01314
G1 X121.731 Y90.421 E.34358
G1 X122.15 Y90.421 E.01314
G1 X122.15 Y101.379 E.34358
G1 X122.569 Y101.379 E.01314
G1 X122.569 Y90.421 E.34358
G1 X122.865 Y90.421 E.00928
G1 X122.865 Y91.001 E.01819
G1 E-3.5 F3600
;WIPE_START
G1 F7200
G1 X122.865 Y90.421 E-.2755
G1 X122.569 Y90.421 E-.1406
G1 X122.569 Y92.703 E-1.0839
;WIPE_END
G1 X116.285 Y105.908 F9000
G1 E5 F2400
G1 F1200
G1 X116.285 Y86.393 E.61188
G1 X116.704 Y86.393 E.01314
G1 X116.704 Y105.762 E.6073
G1 X117.123 Y105.408 E.0172
G1 X117.123 Y86.393 E.5962
G1 X117.493 Y86.393 E.0116
G1 X117.542 Y87.235 E.02644
G1 X117.542 Y105.408 E.5698
G1 X117.961 Y105.408 E.01314
G1 X117.961 Y87.295 E.56792
G1 X118.38 Y87.714 E.01858
G1 X118.38 Y105.408 E.55478
G1 X118.799 Y105.408 E.01314
G1 X118.799 Y88.133 E.54165
G1 X119.217 Y88.552 E.01856
G1 X119.217 Y103.248 E.46078
G1 X119.636 Y102.829 E.01858
G1 X119.636 Y89.078 E.43115
G1 X120.055 Y89.078 E.01314
G1 X120.055 Y102.41 E.41802
G1 X120.474 Y101.991 E.01858
G1 X120.474 Y90.421 E.36277
G1 X120.705 Y90.421 E.00724
G1 E-3.5 F3600
;WIPE_START
G1 F7200
G1 X120.474 Y90.421 E-.10972
G1 X120.474 Y93.348 E-1.39028
;WIPE_END
G1 X115.028 Y106.751 F9000
G1 E5 F2400
G1 F1200
G1 X115.028 Y85.893 E.65399
G1 X115.215 Y85.893 E.00586
G1 X115.447 Y86.124 E.01027
G1 X115.447 Y106.751 E.64675
G1 X115.866 Y106.751 E.01314
G1 X115.866 Y86.393 E.63831
G1 X116.096 Y86.393 E.00721
G1 E-3.5 F3600
;WIPE_START
G1 F7200
G1 X115.866 Y86.393 E-.10925
G1 X115.866 Y89.321 E-1.39075
;WIPE_END
G1 X105.192 Y133.193 F9000
G1 E5 F2400
G1 F1200
G1 X105.192 Y133.607 E.01298
G1 X105.391 Y133.607 E.00624
G1 X105.391 Y85.05 E1.52247
G1 X105.81 Y85.05 E.01314
G1 X105.81 Y133.607 E1.52247
G1 X106.229 Y133.607 E.01314
G1 X106.229 Y85.05 E1.52247
G1 X106.648 Y85.05 E.01314
G1 X106.648 Y133.607 E1.52247
G1 X107.067 Y133.607 E.01314
G1 X107.067 Y85.05 E1.52247
G1 X107.486 Y85.05 E.01314
G1 X107.486 Y133.607 E1.52247
G1 X107.905 Y133.607 E.01314
G1 X107.905 Y85.05 E1.52247
G1 X108.324 Y85.05 E.01314
G1 X108.324 Y133.607 E1.52247
G1 X108.743 Y133.607 E.01314
G1 X108.743 Y85.05 E1.52247
G1 X109.162 Y85.05 E.01314
G1 X109.162 Y133.607 E1.52247
G1 X109.581 Y133.607 E.01314
G1 X109.581 Y85.05 E1.52247
G1 X110 Y85.05 E.01314
G1 X110 Y133.607 E1.52247
G1 X110.419 Y133.607 E.01314
G1 X110.419 Y85.05 E1.52247
G1 X110.838 Y85.05 E.01314
G1 X110.838 Y133.607 E1.52247
G1 X111.257 Y133.607 E.01314
G1 X111.257 Y85.05 E1.52247
G1 X111.676 Y85.05 E.01314
G1 X111.676 Y133.607 E1.52247
G1 X112.095 Y133.607 E.01314
G1 X112.095 Y85.05 E1.52247
G1 X112.514 Y85.05 E.01314
G1 X112.514 Y133.607 E1.52247
G1 X112.933 Y133.607 E.01314
G1 X112.933 Y85.05 E1.52247
G1 X113.352 Y85.05 E.01314
G1 X113.352 Y133.607 E1.52247
G1 X113.771 Y133.607 E.01314
G1 X113.771 Y85.05 E1.52247
G1 X114.19 Y85.05 E.01314
G1 X114.19 Y133.607 E1.52247
G1 X114.609 Y133.607 E.01314
G1 X114.609 Y85.05 E1.52247
G1 X114.808 Y85.05 E.00624
G1 X114.808 Y85.464 E.01298
G1 E-3.5 F3600
;WIPE_START
G1 F7200
G1 X114.808 Y85.05 E-.19665
G1 X114.609 Y85.05 E-.09452
G1 X114.609 Y87.595 E-1.20883
;WIPE_END
G1 X103.849 Y106.209 F9000
G1 E5 F2400
G1 F1200
G1 X103.849 Y106.751 E.01699
G1 X104.134 Y106.751 E.00894
G1 X104.134 Y86.393 E.63831
G1 X104.285 Y86.393 E.00473
G1 X104.553 Y86.124 E.01191
G1 X104.553 Y106.751 E.64675
G1 X104.972 Y106.751 E.01314
G1 X104.972 Y85.893 E.65399
G1 X104.972 Y85.893 F9000
G1 X103.946 Y86.393
G1 F1200
G1 X103.715 Y86.393 E.00724
G1 X103.715 Y105.908 E.61188
G1 X103.442 Y105.908 E.00856
G1 X103.296 Y105.762 E.00647
G1 X103.296 Y86.393 E.6073
G1 X102.877 Y86.393 E.01314
G1 X102.877 Y105.408 E.5962
G1 X102.458 Y105.408 E.01314
G1 X102.507 Y86.393 E.5962
G1 E-3.5 F3600
;WIPE_START
G1 F7200
G1 X102.499 Y89.551 E-1.5
;WIPE_END
G1 X101.201 Y105.408 F9000
G1 E5 F2400
G1 F1200
G1 X101.201 Y88.133 E.54165
G1 X101.62 Y87.714 E.01858
G1 X101.62 Y105.408 E.55478
G1 X102.039 Y105.408 E.01314
G1 X102.039 Y87.295 E.56792
G1 X102.27 Y87.235 E.00748
G1 E-3.5 F3600
;WIPE_START
G1 F7200
G1 X102.039 Y87.295 E-.11337
G1 X102.039 Y90.214 E-1.38663
;WIPE_END
G1 X97.135 Y100.8 F9000
G1 E5 F2400
G1 F1200
G1 X97.135 Y101.379 E.01815
G1 X97.431 Y101.379 E.00928
G1 X97.431 Y90.421 E.34358
G1 X97.85 Y90.421 E.01314
G1 X97.85 Y101.379 E.34358
G1 X98.269 Y101.379 E.01314
G1 X98.269 Y90.421 E.34358
G1 X98.688 Y90.421 E.01314
G1 X98.688 Y101.379 E.34358
G1 X99.107 Y101.379 E.01314
G1 X99.107 Y90.421 E.34358
G1 X99.526 Y90.421 E.01314
G1 X99.526 Y101.991 E.36277
G1 X99.945 Y102.41 E.01858
G1 X99.945 Y89.078 E.41802
G1 X100.364 Y89.078 E.01314
G1 X100.364 Y102.829 E.43115
G1 X100.783 Y103.248 E.01858
G1 X100.783 Y88.552 E.46078
G1 X101.068 Y88.267 E.01264
M106 S255
;LAYER_CHANGE
;Z:0.5
;HEIGHT:0.3
;BEFORE_LAYER_CHANGE
G92 E0
;0.5


G1 E-3.5 F3600
;WIPE_START
G1 F7200
G1 X100.783 Y88.552 E-.19145
G1 X100.783 Y91.307 E-1.30855
;WIPE_END
G1 Z.5 F9000
;AFTER_LAYER_CHANGE
;0.5
M104 S205 ; set temperature
; stop printing object wheel arm.stl id:0 copy 0
G1 Z.5
G1 X96.733 Y85.907
G1 E5 F2400
;TYPE:Skirt/Brim
G1 F1854
G1 X100.141 Y83.352 E.18892
G1 X103.343 Y81.69 E.16002
G1 X104.853 Y81.333 E.06882
G1 X115.147 Y81.333 E.45659
G1 X116.657 Y81.69 E.06882
G1 X119.859 Y83.352 E.16002
G1 X125.23 Y87.38 E.29778
G1 X126.26 Y88.645 E.07236
G1 X126.581 Y90.082 E.06531
G1 X126.581 Y101.719 E.51616
G1 X126.48 Y102.538 E.0366
G1 X118.423 Y134.766 E1.47346
G1 X117.657 Y136.206 E.07235
G1 X116.305 Y137.119 E.07236
G1 X115.147 Y137.324 E.05216
G1 X104.853 Y137.324 E.45659
G1 X103.27 Y136.93 E.07236
G1 X102.056 Y135.839 E.0724
G1 X101.577 Y134.766 E.05212
G1 X93.52 Y102.538 E1.47346
G1 X93.419 Y101.719 E.0366
G1 X93.419 Y90.082 E.51616
G1 X93.813 Y88.499 E.07236
G1 X94.77 Y87.38 E.06531
G1 X96.685 Y85.943 E.10619
G1 E-3.5 F3600
;WIPE_START
G1 F7200
G1 X96.733 Y85.907 E-.0285
G1 X99.212 Y84.048 E-1.4715
;WIPE_END
; printing object wheel arm.stl id:0 copy 0
G1 X118.557 Y92.269 F9000
G1 E5 F2400
;TYPE:Support material
;WIDTH:0.36
G1 F1854
G1 X118.365 Y92.043 E.01093
G1 X118.057 Y92.043 E.01136
G1 X118.057 Y91.2 E.03108
G1 X101.943 Y91.2 E.59414
G1 X101.943 Y92.043 E.03108
G1 X101.635 Y92.043 E.01136
G1 X101.443 Y92.269 E.01093
G1 X102.786 Y90.926 F9000
G1 F1854
G1 X102.786 Y89.858 E.03938
G1 X117.214 Y89.858 E.53198
G1 X117.214 Y89.55 E.01136
G1 X117.022 Y89.358 E.01001
G1 X115.371 Y89.358 E.06087
G1 X115.371 Y88.515 E.03108
G1 X104.629 Y88.515 E.39607
G1 X104.629 Y88.515 F9000
G1 X105.472 Y88.24
G1 F1854
G1 X105.664 Y88.015 E.01091
G1 X107.314 Y88.015 E.06084
G1 X107.314 Y87.172 E.03108
G1 X112.686 Y87.172 E.19807
G1 X112.686 Y88.015 E.03108
G1 X114.336 Y88.015 E.06084
G1 X114.529 Y88.24 E.01093
G1 E-3.5 F3600
;WIPE_START
G1 F7200
G1 X114.336 Y88.015 E-.14081
G1 X112.686 Y88.015 E-.78375
G1 X112.686 Y87.172 E-.40043
G1 X112.318 Y87.172 E-.17501
;WIPE_END
G1 X99.257 Y92.543 F9000
G1 E5 F2400
G1 F1854
G1 X120.743 Y92.543 E.79222
G1 X120.743 Y93.886 E.04952
G1 X99.257 Y93.886 E.79222
G1 X99.257 Y95.229 E.04952
G1 X120.743 Y95.229 E.79222
G1 X120.743 Y96.572 E.04952
G1 X110.843 Y96.572 E.36503
G1 X110.843 Y97.415 E.03108
G1 X109.157 Y97.415 E.06216
G1 X109.157 Y96.572 E.03108
G1 X99.257 Y96.572 E.36503
G1 X99.257 Y97.915 E.04952
G1 X120.743 Y97.915 E.79222
G1 X120.743 Y99.257 E.04948
G1 X99.257 Y99.257 E.79222
G1 E-3.5 F3600
;WIPE_START
G1 F7200
G1 X102.415 Y99.257 E-1.5
;WIPE_END
G1 X101.443 Y99.532 F9000
G1 E5 F2400
G1 F1854
G1 X101.443 Y100.6 E.03938
G1 X118.557 Y100.6 E.63102
G1 X118.557 Y100.908 E.01136
G1 X118.365 Y101.1 E.01001
G1 X117.214 Y101.1 E.04244
G1 X117.214 Y101.943 E.03108
G1 X102.786 Y101.943 E.53198
G1 X102.786 Y102.251 E.01136
G1 X102.978 Y102.443 E.01001
G1 X103.286 Y102.443 E.01136
G1 X103.286 Y103.286 E.03108
G1 X116.714 Y103.286 E.49511
G1 X116.714 Y103.286 F9000
G1 X115.871 Y103.56
G1 F1854
G1 X115.679 Y103.786 E.01093
G1 X114.029 Y103.786 E.06084
G1 X114.029 Y104.629 E.03108
G1 X105.972 Y104.629 E.29707
G1 X105.972 Y103.786 E.03108
G1 X104.321 Y103.786 E.06087
G1 X104.129 Y103.56 E.01093
G1 E-3.5 F3600
;WIPE_START
G1 F7200
G1 X104.321 Y103.786 E-.14086
G1 X105.972 Y103.786 E-.78423
G1 X105.972 Y104.629 E-.40043
G1 X106.339 Y104.629 E-.17448
;WIPE_END
G1 X106.814 Y104.903 F9000
G1 E5 F2400
G1 F1854
G1 X107.007 Y105.129 E.01096
G1 X107.314 Y105.129 E.01132
G1 X107.314 Y105.972 E.03108
G1 X112.686 Y105.972 E.19807
G1 X112.686 Y107.314 E.04948
G1 X107.314 Y107.314 E.19807
G1 X107.314 Y108.657 E.04952
G1 X112.686 Y108.657 E.19807
G1 X112.686 Y110 E.04952
G1 X107.314 Y110 E.19807
G1 X107.314 Y111.343 E.04952
G1 X112.686 Y111.343 E.19807
G1 X112.686 Y112.686 E.04952
G1 X107.314 Y112.686 E.19807
G1 X107.314 Y114.028 E.04948
G1 X112.686 Y114.028 E.19807
G1 X112.686 Y115.371 E.04952
G1 X107.314 Y115.371 E.19807
G1 X107.314 Y116.714 E.04952
G1 X112.686 Y116.714 E.19807
G1 X112.686 Y118.057 E.04952
G1 X107.314 Y118.057 E.19807
G1 X107.314 Y119.4 E.04952
G1 X112.686 Y119.4 E.19807
G1 X112.686 Y120.743 E.04952
G1 X107.314 Y120.743 E.19807
G1 X107.314 Y122.085 E.04948
G1 X112.686 Y122.085 E.19807
G1 X112.686 Y123.428 E.04952
G1 X107.314 Y123.428 E.19807
G1 X107.314 Y124.771 E.04952
G1 X112.686 Y124.771 E.19807
G1 X112.686 Y126.114 E.04952
G1 X107.314 Y126.114 E.19807
G1 X107.314 Y127.457 E.04952
G1 X112.686 Y127.457 E.19807
G1 X112.686 Y128.8 E.04952
G1 X107.314 Y128.8 E.19807
G1 X107.314 Y130.142 E.04948
G1 X112.686 Y130.142 E.19807
G1 X112.686 Y131.485 E.04952
G1 X107.314 Y131.485 E.19807
;LAYER_CHANGE
;Z:0.8
;HEIGHT:0.3
;BEFORE_LAYER_CHANGE
G92 E0
;0.8


G1 E-3.5 F3600
;WIPE_START
G1 F7200
G1 X110.472 Y131.485 E-1.5
;WIPE_END
G1 Z.8 F9000
;AFTER_LAYER_CHANGE
;0.8
G1 Z.8
G1 X118.557 Y92.269
G1 E5 F2400
G1 F1338
G1 X118.365 Y92.043 E.01093
G1 X118.057 Y92.043 E.01136
G1 X118.057 Y91.2 E.03108
G1 X101.943 Y91.2 E.59414
G1 X101.943 Y92.043 E.03108
G1 X101.635 Y92.043 E.01136
G1 X101.443 Y92.269 E.01093
G1 X102.786 Y90.926 F9000
G1 F1338
G1 X102.786 Y89.858 E.03938
G1 X117.214 Y89.858 E.53198
G1 X117.214 Y89.55 E.01136
G1 X117.022 Y89.358 E.01001
G1 X115.371 Y89.358 E.06087
G1 X115.371 Y88.515 E.03108
G1 X104.629 Y88.515 E.39607
G1 X104.629 Y88.515 F9000
G1 X105.472 Y88.24
G1 F1338
G1 X105.664 Y88.015 E.01091
G1 X107.314 Y88.015 E.06084
G1 X107.314 Y87.172 E.03108
G1 X112.686 Y87.172 E.19807
G1 X112.686 Y88.015 E.03108
G1 X114.336 Y88.015 E.06084
G1 X114.529 Y88.24 E.01093
G1 E-3.5 F3600
;WIPE_START
G1 F7200
G1 X114.336 Y88.015 E-.14081
G1 X112.686 Y88.015 E-.78375
G1 X112.686 Y87.172 E-.40043
G1 X112.318 Y87.172 E-.17501
;WIPE_END
G1 X99.257 Y92.543 F9000
G1 E5 F2400
G1 F1338
G1 X120.743 Y92.543 E.79222
G1 X120.743 Y93.886 E.04952
G1 X99.257 Y93.886 E.79222
G1 X99.257 Y95.229 E.04952
G1 X120.743 Y95.229 E.79222
G1 X120.743 Y96.572 E.04952
G1 X110.843 Y96.572 E.36503
G1 X110.843 Y97.415 E.03108
G1 X109.157 Y97.415 E.06216
G1 X109.157 Y96.572 E.03108
G1 X99.257 Y96.572 E.36503
G1 X99.257 Y97.915 E.04952
G1 X120.743 Y97.915 E.79222
G1 X120.743 Y99.257 E.04948
G1 X99.257 Y99.257 E.79222
G1 E-3.5 F3600
;WIPE_START
G1 F7200
G1 X102.415 Y99.257 E-1.5
;WIPE_END
G1 X101.443 Y99.532 F9000
G1 E5 F2400
G1 F1338
G1 X101.443 Y100.6 E.03938
G1 X118.557 Y100.6 E.63102
G1 X118.557 Y100.908 E.01136
G1 X118.365 Y101.1 E.01001
G1 X117.214 Y101.1 E.04244
G1 X117.214 Y101.943 E.03108
G1 X102.786 Y101.943 E.53198
G1 X102.786 Y102.251 E.01136
G1 X102.978 Y102.443 E.01001
G1 X103.286 Y102.443 E.01136
G1 X103.286 Y103.286 E.03108
G1 X116.714 Y103.286 E.49511
