; generated by PrusaSlicer 2.6.0+win64 on 2024-02-03 at 00:25:31 UTC

; 

; external perimeters extrusion width = 0.42mm
; perimeters extrusion width = 0.44mm
; infill extrusion width = 0.44mm
; solid infill extrusion width = 0.44mm
; top infill extrusion width = 0.40mm
; support material extrusion width = 0.36mm
; first layer extrusion width = 0.42mm

M201 X500 Y500 Z100 E5000 ; sets maximum accelerations, mm/sec^2
M203 X500 Y500 Z10 E60 ; sets maximum feedrates, mm / sec
M204 S500 T1000 ; sets acceleration (S) and retract acceleration (R), mm/sec^2
M205 X8.00 Y8.00 Z0.40 E5.00 ; sets the jerk limits, mm/sec
M205 S0 T0 ; sets the minimum extruding and travel feed rate, mm/sec
;TYPE:Custom
G90 ; use absolute coordinates
M83 ; extruder relative mode
M104 S150 ; set temporary nozzle temp to prevent oozing during homing
M140 S60 ; set final bed temp
G4 S30 ; allow partial nozzle warmup
G28 ; home all axis
G1 Z50 F240
G1 X2.0 Y10 F3000
M104 S215 ; set final nozzle temp
M190 S60 ; wait for bed temp to stabilize
M109 S215 ; wait for nozzle temp to stabilize
G1 Z0.28 F240
G92 E0
G1 X2.0 Y140 E10 F1500 ; prime the nozzle
G1 X2.3 Y140 F5000
G92 E0
G1 X2.3 Y10 E10 F1200 ; prime the nozzle
G92 E0
G21 ; set units to millimeters
G90 ; use absolute coordinates
M83 ; use relative distances for extrusion
; Filament gcode
M107
;LAYER_CHANGE
;Z:0.2
;HEIGHT:0.2
;BEFORE_LAYER_CHANGE
G92 E0
;0.2


G1 E-5 F3600
G1 Z.2 F9000
;AFTER_LAYER_CHANGE
;0.2
G1 X80.651 Y68.128
G1 E5 F2400
M204 S500
;TYPE:Skirt/Brim
;WIDTH:0.42
G1 F1200
G1 X81.409 Y67.36 E.03383
G1 X82.662 Y66.317 E.05112
G1 X83.705 Y65.62 E.03933
G1 X85.04 Y64.91 E.04741
G1 X86.949 Y64.191 E.06396
G1 X88.827 Y63.779 E.06028
G1 X129.357 Y58.349 E1.28214
G1 X131.024 Y58.324 E.05227
G1 X132.11 Y58.427 E.0342
G1 X133.357 Y58.655 E.03975
G1 X134.825 Y59.081 E.04793
G1 X135.84 Y59.482 E.03422
G1 X137.804 Y60.552 E.07013
G1 X138.598 Y61.113 E.03048
G1 X139.762 Y62.104 E.04793
G1 X140.522 Y62.887 E.03421
G1 X141.323 Y63.869 E.03973
G1 X141.874 Y64.669 E.03046
G1 X142.623 Y66.001 E.04791
G1 X143.393 Y67.914 E.06466
G1 X143.893 Y70.095 E.07016
G1 X144.036 Y71.913 E.05718
G1 X144.033 Y83.084 E.35026
G1 X143.848 Y85.017 E.06088
G1 X143.445 Y86.737 E.05539
G1 X143.021 Y87.932 E.03976
G1 X142.311 Y89.418 E.05164
G1 X141.646 Y90.497 E.03974
G1 X140.639 Y91.801 E.05166
G1 X139.762 Y92.716 E.03974
G1 X138.504 Y93.78 E.05166
G1 X137.454 Y94.49 E.03974
G1 X136.108 Y95.214 E.04792
G1 X134.825 Y95.739 E.04347
G1 X133.068 Y96.229 E.05719
G1 X131.319 Y96.477 E.05539
G1 X129.638 Y96.497 E.05271
G1 X88.057 Y90.905 E1.31548
G1 X86.317 Y90.426 E.05659
G1 X85.046 Y89.912 E.04299
G1 X83.609 Y89.142 E.05112
G1 X82.138 Y88.096 E.05659
G1 X81.118 Y87.179 E.04301
G1 X80.032 Y85.964 E.0511
G1 X79.007 Y84.478 E.0566
G1 X78.413 Y83.374 E.03931
G1 X77.796 Y81.865 E.05112
G1 X77.486 Y80.831 E.03385
G1 X77.231 Y79.603 E.03932
G1 X77.073 Y78.099 E.04742
G1 X77.073 Y76.727 E.04302
G1 X77.23 Y75.223 E.04741
G1 X77.794 Y72.961 E.07309
G1 X78.36 Y71.558 E.04743
G1 X78.943 Y70.448 E.03931
G1 X79.85 Y69.093 E.05112
G1 X80.612 Y68.174 E.03743
G1 E-3.5 F3600
;WIPE_START
G1 F7200
G1 X81.409 Y67.36 E-.54113
G1 X82.662 Y66.317 E-.77439
G1 X82.985 Y66.101 E-.18448
;WIPE_END
G1 X83.254 Y70.713 F9000
G1 E5 F2400
G1 F1200
G1 X83.835 Y70.108 E.0263
G1 X84.318 Y69.674 E.02036
G1 X84.822 Y69.276 E.02014
G1 X85.493 Y68.821 E.02542
G1 X86.141 Y68.45 E.02341
G1 X86.734 Y68.164 E.02064
G1 X87.35 Y67.915 E.02083
G1 X88.013 Y67.698 E.02187
G1 X88.7 Y67.524 E.02222
G1 X89.511 Y67.383 E.02581
G1 X90.034 Y67.328 E.01649
G1 X90.428 Y67.309 E.01237
G1 X129.799 Y61.986 E1.24568
G1 X130.836 Y61.983 E.03251
G1 X131.669 Y62.064 E.02624
G1 X132.49 Y62.214 E.02617
G1 X133.174 Y62.394 E.02218
G1 X133.759 Y62.59 E.01934
G1 X134.324 Y62.818 E.0191
G1 X135.047 Y63.171 E.02523
G1 X135.753 Y63.587 E.02569
G1 X136.255 Y63.934 E.01913
G1 X136.742 Y64.316 E.01941
G1 X137.304 Y64.822 E.02371
G1 X137.845 Y65.39 E.02459
G1 X138.35 Y66.01 E.02507
G1 X138.706 Y66.516 E.0194
G1 X139.026 Y67.035 E.01912
G1 X139.393 Y67.736 E.02481
G1 X139.72 Y68.502 E.02611
G1 X139.917 Y69.077 E.01906
G1 X140.084 Y69.675 E.01947
G1 X140.236 Y70.418 E.02378
G1 X140.333 Y71.179 E.02405
G1 X140.371 Y71.864 E.02151
G1 X140.362 Y72.558 E.02176
G1 X140.297 Y73.315 E.02382
G1 X140.179 Y74.053 E.02343
G1 X140.016 Y74.744 E.02226
G1 X139.815 Y75.394 E.02133
G1 X139.564 Y76.044 E.02185
G1 X139.254 Y76.703 E.02283
G1 X138.852 Y77.397 E.02515
G1 X139.26 Y78.129 E.02628
G1 X139.552 Y78.749 E.02149
G1 X139.805 Y79.4 E.0219
G1 X140.017 Y80.08 E.02233
G1 X140.181 Y80.777 E.02245
G1 X140.299 Y81.513 E.02337
G1 X140.362 Y82.265 E.02366
G1 X140.372 Y82.935 E.02101
G1 X140.335 Y83.618 E.02145
G1 X140.244 Y84.351 E.02316
G1 X140.112 Y85.025 E.02153
G1 X139.931 Y85.699 E.02188
G1 X139.709 Y86.346 E.02145
G1 X139.438 Y86.989 E.02188
G1 X139.072 Y87.704 E.02518
G1 X138.666 Y88.364 E.0243
G1 X138.25 Y88.941 E.0223
G1 X137.804 Y89.476 E.02184
G1 X137.313 Y89.989 E.02226
G1 X136.799 Y90.456 E.02177
G1 X136.258 Y90.883 E.02161
G1 X135.671 Y91.285 E.02231
G1 X134.976 Y91.687 E.02517
G1 X134.373 Y91.98 E.02102
G1 X133.741 Y92.236 E.02138
G1 X133.079 Y92.453 E.02184
G1 X132.412 Y92.623 E.02158
G1 X131.674 Y92.755 E.02351
G1 X130.798 Y92.839 E.02759
G1 X129.799 Y92.834 E.03132
G1 X90.428 Y87.511 E1.24568
G1 X90.034 Y87.492 E.01237
G1 X89.512 Y87.437 E.01646
G1 X88.737 Y87.304 E.02465
G1 X88.104 Y87.149 E.02043
G1 X87.47 Y86.948 E.02085
G1 X86.66 Y86.623 E.02737
G1 X86.037 Y86.314 E.0218
G1 X85.427 Y85.958 E.02215
G1 X84.855 Y85.568 E.02171
G1 X84.31 Y85.14 E.02173
G1 X83.798 Y84.676 E.02166
G1 X83.318 Y84.179 E.02166
G1 X82.865 Y83.64 E.02208
G1 X82.458 Y83.081 E.02168
G1 X82.091 Y82.496 E.02165
G1 X81.758 Y81.875 E.02209
G1 X81.459 Y81.208 E.02292
G1 X81.221 Y80.559 E.02167
G1 X81.029 Y79.896 E.02164
G1 X80.876 Y79.187 E.02274
G1 X80.772 Y78.443 E.02355
G1 X80.724 Y77.733 E.02231
G1 X80.725 Y77.058 E.02116
G1 X80.775 Y76.348 E.02232
G1 X80.872 Y75.657 E.02188
G1 X81.011 Y74.995 E.02121
G1 X81.214 Y74.284 E.02318
G1 X81.461 Y73.608 E.02257
G1 X81.74 Y72.981 E.02152
G1 X82.062 Y72.373 E.02157
G1 X82.481 Y71.706 E.0247
G1 X82.852 Y71.197 E.01975
G1 X83.215 Y70.759 E.01784
G1 X83.506 Y71 F9000
G1 F1200
G1 X84.102 Y70.374 E.0271
G1 X84.565 Y69.959 E.0195
G1 X85.05 Y69.576 E.01938
G1 X85.699 Y69.137 E.02457
G1 X86.311 Y68.787 E.02211
G1 X86.892 Y68.506 E.02024
G1 X87.485 Y68.267 E.02005
G1 X88.124 Y68.058 E.02108
G1 X88.785 Y67.891 E.02138
G1 X89.557 Y67.757 E.02457
G1 X90.068 Y67.704 E.01611
G1 X90.462 Y67.685 E.01237
G1 X129.837 Y62.361 E1.24581
G1 X130.809 Y62.359 E.03048
G1 X131.609 Y62.437 E.0252
G1 X132.401 Y62.581 E.02524
G1 X133.06 Y62.754 E.02136
G1 X133.623 Y62.942 E.01861
G1 X134.177 Y63.165 E.01872
G1 X134.875 Y63.506 E.02436
G1 X135.544 Y63.901 E.02436
G1 X136.035 Y64.241 E.01873
G1 X136.504 Y64.609 E.01869
G1 X137.046 Y65.097 E.02287
G1 X137.567 Y65.645 E.02371
G1 X138.045 Y66.232 E.02374
G1 X138.388 Y66.719 E.01868
G1 X138.702 Y67.228 E.01875
G1 X139.056 Y67.904 E.02393
G1 X139.365 Y68.631 E.02477
G1 X139.559 Y69.194 E.01867
G1 X139.718 Y69.769 E.01871
G1 X139.865 Y70.486 E.02295
G1 X139.958 Y71.22 E.0232
G1 X139.994 Y71.879 E.02069
G1 X139.986 Y72.533 E.02051
G1 X139.924 Y73.263 E.02297
G1 X139.81 Y73.974 E.02258
G1 X139.654 Y74.639 E.02142
G1 X139.456 Y75.276 E.02092
G1 X139.215 Y75.901 E.021
G1 X138.917 Y76.535 E.02197
G1 X138.404 Y77.417 E.03199
G1 X138.594 Y77.706 E.01084
G1 X138.922 Y78.295 E.02114
G1 X139.203 Y78.892 E.02069
G1 X139.447 Y79.518 E.02107
G1 X139.651 Y80.172 E.02148
G1 X139.812 Y80.856 E.02203
G1 X139.925 Y81.566 E.02254
G1 X139.985 Y82.277 E.02237
G1 X139.994 Y82.934 E.0206
G1 X139.959 Y83.591 E.02063
G1 X139.873 Y84.285 E.02193
G1 X139.746 Y84.934 E.02073
G1 X139.572 Y85.583 E.02107
G1 X139.355 Y86.217 E.02101
G1 X139.093 Y86.836 E.02108
G1 X138.746 Y87.513 E.02385
G1 X138.356 Y88.15 E.02342
G1 X137.955 Y88.705 E.02147
G1 X137.527 Y89.22 E.021
G1 X137.054 Y89.714 E.02144
G1 X136.56 Y90.164 E.02095
G1 X136.04 Y90.576 E.0208
G1 X135.464 Y90.97 E.02188
G1 X134.805 Y91.351 E.02387
G1 X134.214 Y91.638 E.0206
G1 X133.606 Y91.884 E.02056
G1 X132.968 Y92.093 E.02105
G1 X132.326 Y92.255 E.02076
G1 X131.616 Y92.382 E.02261
G1 X130.789 Y92.462 E.02605
G1 X129.837 Y92.459 E.02985
G1 X90.462 Y87.135 E1.24581
G1 X90.068 Y87.116 E.01237
G1 X89.558 Y87.063 E.01608
G1 X88.821 Y86.936 E.02345
G1 X88.2 Y86.784 E.02005
G1 X87.591 Y86.591 E.02003
G1 X86.821 Y86.282 E.02601
G1 X86.221 Y85.985 E.02099
G1 X85.634 Y85.642 E.02132
G1 X85.083 Y85.267 E.0209
G1 X84.549 Y84.847 E.0213
G1 X84.055 Y84.401 E.02087
G1 X83.594 Y83.922 E.02084
G1 X83.158 Y83.402 E.02128
G1 X82.767 Y82.864 E.02085
G1 X82.414 Y82.302 E.02081
G1 X82.094 Y81.703 E.02129
G1 X81.811 Y81.072 E.02168
G1 X81.582 Y80.447 E.02087
G1 X81.393 Y79.798 E.02119
G1 X81.246 Y79.115 E.02191
G1 X81.146 Y78.398 E.0227
G1 X81.101 Y77.726 E.02112
G1 X81.102 Y77.078 E.02032
G1 X81.15 Y76.381 E.02191
G1 X81.242 Y75.728 E.02068
G1 X81.376 Y75.091 E.02041
G1 X81.575 Y74.394 E.02273
G1 X81.808 Y73.755 E.02133
G1 X82.076 Y73.152 E.02069
G1 X82.392 Y72.556 E.02115
G1 X82.796 Y71.912 E.02384
G1 X83.153 Y71.425 E.01893
G1 X83.467 Y71.046 E.01543
G1 X83.757 Y71.287 F9000
G1 F1200
G1 X84.369 Y70.641 E.0279
G1 X84.812 Y70.244 E.01865
G1 X85.278 Y69.877 E.0186
G1 X85.904 Y69.453 E.02371
G1 X86.481 Y69.124 E.02083
G1 X87.039 Y68.854 E.01944
G1 X87.62 Y68.619 E.01965
G1 X88.235 Y68.419 E.02028
G1 X88.871 Y68.259 E.02056
G1 X89.603 Y68.132 E.02329
G1 X90.101 Y68.079 E.0157
G1 X90.496 Y68.061 E.0124
G1 X129.875 Y62.737 E1.24593
G1 X130.782 Y62.735 E.02844
G1 X131.55 Y62.809 E.02419
G1 X132.313 Y62.948 E.02432
G1 X132.947 Y63.114 E.02055
G1 X133.498 Y63.298 E.01821
G1 X134.029 Y63.512 E.01795
G1 X134.69 Y63.835 E.02307
G1 X135.336 Y64.216 E.02352
G1 X135.807 Y64.541 E.01794
G1 X136.267 Y64.901 E.01831
G1 X136.788 Y65.372 E.02202
G1 X137.289 Y65.899 E.0228
G1 X137.741 Y66.455 E.02247
G1 X138.07 Y66.922 E.01791
G1 X138.377 Y67.42 E.01834
G1 X138.718 Y68.072 E.02307
G1 X139.011 Y68.76 E.02345
G1 X139.197 Y69.3 E.01791
G1 X139.353 Y69.864 E.01835
G1 X139.494 Y70.554 E.02208
G1 X139.583 Y71.26 E.02231
G1 X139.617 Y71.892 E.01984
G1 X139.609 Y72.521 E.01972
G1 X139.549 Y73.224 E.02212
G1 X139.439 Y73.907 E.02169
G1 X139.288 Y74.546 E.02059
G1 X139.098 Y75.158 E.02009
G1 X138.871 Y75.747 E.01979
G1 X138.584 Y76.358 E.02117
G1 X138.245 Y76.96 E.02166
G1 X137.947 Y77.411 E.01695
G1 X138.268 Y77.897 E.01826
G1 X138.584 Y78.462 E.0203
G1 X138.859 Y79.047 E.02027
G1 X139.094 Y79.649 E.02026
G1 X139.289 Y80.278 E.02065
G1 X139.443 Y80.936 E.02119
G1 X139.552 Y81.618 E.02166
G1 X139.608 Y82.289 E.02111
G1 X139.617 Y82.933 E.02019
G1 X139.583 Y83.564 E.01981
G1 X139.502 Y84.219 E.02069
G1 X139.38 Y84.843 E.01994
G1 X139.214 Y85.467 E.02025
G1 X139 Y86.088 E.02059
G1 X138.749 Y86.683 E.02025
G1 X138.421 Y87.322 E.02252
G1 X138.045 Y87.935 E.02255
G1 X137.661 Y88.47 E.02065
G1 X137.25 Y88.965 E.02017
G1 X136.796 Y89.44 E.0206
G1 X136.321 Y89.873 E.02015
G1 X135.821 Y90.268 E.01998
G1 X135.257 Y90.655 E.02145
G1 X134.634 Y91.015 E.02256
G1 X134.067 Y91.291 E.01977
G1 X133.47 Y91.532 E.02019
G1 X132.857 Y91.733 E.02023
G1 X132.24 Y91.888 E.01995
G1 X131.557 Y92.01 E.02175
G1 X130.78 Y92.085 E.02448
G1 X129.875 Y92.083 E.02838
G1 X90.496 Y86.759 E1.24593
G1 X90.101 Y86.741 E.0124
G1 X89.603 Y86.688 E.0157
G1 X88.904 Y86.568 E.02224
G1 X88.297 Y86.419 E.0196
G1 X87.711 Y86.234 E.01927
G1 X86.981 Y85.94 E.02468
G1 X86.405 Y85.656 E.02014
G1 X85.84 Y85.327 E.0205
G1 X85.3 Y84.959 E.02049
G1 X84.787 Y84.555 E.02047
G1 X84.314 Y84.126 E.02002
G1 X83.871 Y83.666 E.02002
G1 X83.452 Y83.165 E.02048
G1 X83.076 Y82.648 E.02004
G1 X82.737 Y82.107 E.02002
G1 X82.429 Y81.532 E.02045
G1 X82.163 Y80.936 E.02046
G1 X81.938 Y80.324 E.02044
G1 X81.757 Y79.699 E.0204
G1 X81.616 Y79.043 E.02104
G1 X81.52 Y78.352 E.02187
G1 X81.478 Y77.72 E.01986
G1 X81.478 Y77.098 E.0195
G1 X81.526 Y76.414 E.0215
G1 X81.613 Y75.799 E.01947
G1 X81.74 Y75.188 E.01957
G1 X81.936 Y74.503 E.02234
G1 X82.155 Y73.902 E.02006
G1 X82.412 Y73.323 E.01986
G1 X82.722 Y72.738 E.02076
G1 X83.112 Y72.119 E.02294
G1 X83.454 Y71.652 E.01815
G1 X83.719 Y71.333 E.013
G1 X84.009 Y71.574 F9000
G1 F1200
G1 X84.635 Y70.908 E.02866
G1 X85.059 Y70.529 E.01783
G1 X85.506 Y70.178 E.01782
G1 X86.098 Y69.777 E.02242
G1 X86.651 Y69.46 E.01999
G1 X87.187 Y69.201 E.01867
G1 X87.755 Y68.971 E.01921
G1 X88.345 Y68.779 E.01945
G1 X88.955 Y68.626 E.01972
G1 X89.648 Y68.506 E.02205
G1 X90.135 Y68.455 E.01535
G1 X90.529 Y68.437 E.01237
G1 X129.913 Y63.112 E1.24609
G1 X130.772 Y63.112 E.02693
G1 X131.49 Y63.182 E.02262
G1 X132.224 Y63.314 E.02338
G1 X132.833 Y63.473 E.01973
G1 X133.363 Y63.65 E.01752
G1 X133.882 Y63.86 E.01755
G1 X134.518 Y64.17 E.02218
G1 X135.127 Y64.53 E.02218
G1 X135.588 Y64.848 E.01756
G1 X136.028 Y65.194 E.01755
G1 X136.53 Y65.647 E.0212
G1 X137.001 Y66.143 E.02145
G1 X137.436 Y66.677 E.0216
G1 X137.759 Y67.134 E.01755
G1 X138.053 Y67.612 E.0176
G1 X138.38 Y68.24 E.0222
G1 X138.657 Y68.889 E.02212
G1 X138.839 Y69.418 E.01754
G1 X138.988 Y69.958 E.01756
G1 X139.123 Y70.622 E.02125
G1 X139.208 Y71.3 E.02142
G1 X139.24 Y71.906 E.01903
G1 X139.232 Y72.509 E.01891
G1 X139.174 Y73.184 E.02124
G1 X139.068 Y73.84 E.02084
G1 X138.923 Y74.453 E.01975
G1 X138.744 Y75.029 E.01891
G1 X138.526 Y75.593 E.01896
G1 X138.252 Y76.18 E.02031
G1 X137.92 Y76.769 E.0212
G1 X137.495 Y77.411 E.02414
G1 X137.942 Y78.087 E.02541
G1 X138.246 Y78.629 E.01948
G1 X138.51 Y79.19 E.01944
G1 X138.74 Y79.779 E.01983
G1 X138.924 Y80.37 E.01941
G1 X139.075 Y81.015 E.02077
G1 X139.178 Y81.67 E.02079
G1 X139.231 Y82.301 E.01985
G1 X139.24 Y82.932 E.01979
G1 X139.207 Y83.537 E.019
G1 X139.13 Y84.154 E.0195
G1 X139.011 Y84.764 E.01949
G1 X138.851 Y85.363 E.01944
G1 X138.646 Y85.959 E.01976
G1 X138.404 Y86.529 E.01942
G1 X138.096 Y87.132 E.02123
G1 X137.735 Y87.721 E.02166
G1 X137.367 Y88.234 E.0198
G1 X136.973 Y88.709 E.01935
G1 X136.537 Y89.166 E.0198
G1 X136.081 Y89.582 E.01935
G1 X135.603 Y89.961 E.01913
G1 X135.05 Y90.339 E.021
G1 X134.463 Y90.679 E.02127
G1 X133.908 Y90.949 E.01935
G1 X133.335 Y91.18 E.01937
G1 X132.746 Y91.372 E.01942
G1 X132.155 Y91.521 E.01911
G1 X131.498 Y91.637 E.02092
G1 X130.771 Y91.708 E.0229
G1 X129.913 Y91.708 E.0269
G1 X90.529 Y86.383 E1.24609
G1 X90.135 Y86.365 E.01237
G1 X89.649 Y86.314 E.01532
G1 X88.975 Y86.198 E.02144
G1 X88.393 Y86.055 E.01879
G1 X87.832 Y85.876 E.01846
G1 X87.142 Y85.599 E.02331
G1 X86.578 Y85.321 E.01972
G1 X86.036 Y85.005 E.01967
G1 X85.518 Y84.652 E.01965
G1 X85.026 Y84.263 E.01967
G1 X84.572 Y83.851 E.01922
G1 X84.147 Y83.409 E.01923
G1 X83.745 Y82.929 E.01963
G1 X83.385 Y82.432 E.01924
G1 X83.06 Y81.913 E.0192
G1 X82.765 Y81.36 E.01965
G1 X82.514 Y80.8 E.01924
G1 X82.298 Y80.212 E.01964
G1 X82.121 Y79.601 E.01995
G1 X81.987 Y78.971 E.0202
G1 X81.895 Y78.307 E.02102
G1 X81.855 Y77.714 E.01864
G1 X81.855 Y77.117 E.01872
G1 X81.902 Y76.447 E.02106
G1 X81.983 Y75.87 E.01827
G1 X82.105 Y75.285 E.01874
G1 X82.296 Y74.613 E.0219
G1 X82.502 Y74.049 E.01883
G1 X82.749 Y73.494 E.01905
G1 X83.052 Y72.921 E.02032
G1 X83.427 Y72.325 E.02208
G1 X83.754 Y71.88 E.01731
G1 X83.97 Y71.62 E.0106
G1 X84.26 Y71.861 F9000
G1 F1200
G1 X84.892 Y71.184 E.02904
G1 X85.306 Y70.814 E.01741
G1 X85.733 Y70.478 E.01704
G1 X86.291 Y70.101 E.02111
G1 X86.822 Y69.797 E.01918
G1 X87.334 Y69.548 E.01785
G1 X87.878 Y69.328 E.0184
G1 X88.455 Y69.14 E.01903
G1 X89.04 Y68.994 E.0189
G1 X89.694 Y68.88 E.02081
G1 X90.169 Y68.83 E.01498
G1 X90.563 Y68.813 E.01237
G1 X129.95 Y63.488 E1.24619
G1 X130.762 Y63.489 E.02546
G1 X131.446 Y63.556 E.02155
G1 X132.136 Y63.681 E.02199
G1 X132.72 Y63.833 E.01892
G1 X133.238 Y64.006 E.01712
G1 X133.734 Y64.207 E.01678
G1 X134.333 Y64.499 E.02089
G1 X134.919 Y64.844 E.02132
G1 X135.36 Y65.148 E.01679
G1 X135.79 Y65.486 E.01715
G1 X136.271 Y65.922 E.02036
G1 X136.723 Y66.397 E.02056
G1 X137.132 Y66.9 E.02033
G1 X137.441 Y67.337 E.01678
G1 X137.728 Y67.804 E.01719
G1 X138.042 Y68.408 E.02134
